!!!!SEGMENT: pl-kk--kk-i-2--021-003_lilius-franciszek--missa-a-4-voci-credo.krn
!!!cenid: 16xx:1636
!!!COM: Lilius, Franciszek
!!!COM-rismID: pe30020509
!!!CDT: ~1600-1657
!!!CNT: Polish
!!!OPR: Missa a 4 voci
!!!OTL: Credo
!!!OMV: 003
!!!PDT:
!!!AGN: Sacred; Mass
!!!SMS-siglum: PL-Kk
!!!SMS-shelfmark: Kk.I.2
!!!SMS-shelfwork: 021-003 M
!!!NIFC-rismSourceID: 300258037
!!!NIFC-islandoraID: pl-kk:750
!!!URL-pdf-islandora: https://repozytorium.nifc.pl/islandora/object/pl-kk%3A750/datastream/PDF/view
!!!URL-scan: https://polish.musicsources.pl/pl/lokalizacje/galeria/rekopisy/5828 @EN{Scan on Polish Music Herritage in Open Access Website} @PL{Skany w portalu Dziedzictwo Muzyki Polskiej w otwartym dostępie}
!!!ONB-nifc: Części mszy: Kyrie, Gloria, Credo, Sanctus, Benedictus, Agnus Dei; skany: C: 0047-0048; A: 0149-0151; T: 0251-0253; B: 0350-0351;
!!!AIN: 1 alto 1 bass 1 soprn 1 tenor
!!!key: d:dor
**kern	**text	**kern	**text	**kern	**text	**kern	**text
*part4	*part4	*part3	*part3	*part2	*part2	*part1	*part1
*staff4	*staff4	*staff3	*staff3	*staff2	*staff2	*staff1	*staff1
*I"BASVS	*	*I"TENOR	*	*I"ALTVS	*	*I"DISCANTVS	*
*I'B	*	*I'T	*	*I'A	*	*I'S	*
*ICvox	*	*ICvox	*	*ICvox	*	*ICvox	*
*Ibass	*	*Itenor	*	*Ialto	*	*Isoprn	*
*clefF4	*	*clefC4	*	*clefC4	*	*clefC3	*
*d:dor	*	*d:dor	*	*d:dor	*	*d:dor	*
*k[b-]	*	*k[b-]	*	*k[b-]	*	*k[b-]	*
*M2/1	*	*M2/1	*	*M2/1	*	*M2/1	*
*met(c|)	*	*met(c|)	*	*met(c|)	*	*met(c|)	*
=1	=1	=1	=1	=1	=1	=1	=1
!	!	!	!	!	!	!LO:TX:t=P:problem=kreska pseudotaktowa	!
!	!	!	!	!LO:TX:t=P:problem=Altus zapisany w kluczu tenorowym	!	!LO:TX:t=P:problem=Discantus zapisany w kluczu altowym	!
1r	.	1d	Pa-	1r	.	1r	.
!	!	!	!	!LO:TX:t=P:problem=kreska pseudotaktowa	!	!	!
1G	Pa-	2d\	-trem	1B-	Pa-	1g	Pa-
!	!	!LO:TX:t=P:problem=kreska pseudotaktowa	!	!	!	!	!
.	.	2d\	o-	.	.	.	.
=2	=2	=2	=2	=2	=2	=2	=2
2G\	-trem	2B-\	-mni-	2B-\	-trem	2g\	-trem
!LO:TX:t=P:problem=kreska pseudotaktowa	!	!	!	!	!	!	!
2G\	o-	2d\	-po-	1G	o-	2g\	o-
2C/	-mni-	1c	-ten-	.	.	2e\	-mni-
!	!	!	!	!LO:TX:t=P:problem=kreska pseudotaktowa	!	!LO:TX:t=P:problem=kreska pseudotaktowa	!
2C/	-po-	.	.	2.c\	-mni-	2g\	-po-
=3	=3	=3	=3	=3	=3	=3	=3
!LO:TX:t=P:problem=kreska pseudotaktowa	!	!LO:TX:t=P:problem=kreska pseudotaktowa	!	!	!	!	!
1F	-ten-	1A	.	.	.	1f	-ten-
.	.	.	.	4c\	-po-	.	.
!	!	!	!	!LO:TX:t=P:problem=kreska pseudotaktowa	!	!	!
.	.	.	.	2c\	-ten-	.	.
2C/	-tem	2G,/	-tem	2c,\	-tem	2e\	-tem
!	!	!	!	!	!	!LO:TX:t=P:problem=kreska pseudotaktowa	!
2C/	fa-	2G/	fa-	2c\	fac-	2e\	fac-
=4	=4	=4	=4	=4	=4	=4	=4
!LO:TX:t=P:problem=kreska pseudotaktowa	!	!LO:TX:t=P:problem=kreska pseudotaktowa	!	!	!	!	!
1D	-cto-	1F	-cto-	2A/	-to-	1d	-to-
!	!	!	!	!LO:TX:t=P:problem=kreska pseudotaktowa	!	!	!
.	.	.	.	2Bn\	-rem	.	.
2C/	-rem	2G/	-rem	2c\	coe-	2e\	-re(m)
2.BB-/	coe-	2.B-\	coe-	2.d\	-li	2.f\	coe-
=5	=5	=5	=5	=5	=5	=5	=5
.	.	.	.	.	.	.	.
4BB-/	-li	4B-\	-li	4d\	.	4f\	-li
!LO:TX:t=P:problem=kreska pseudotaktowa	!	!LO:TX:t=P:problem=kreska pseudotaktowa	!	!	!	!LO:TX:t=P:problem=kreska pseudotaktowa	!
2C/	et	2G/	et	1c	et	2e\	et
1GG	ter-	1G	ter-	.	.	1d	ter-
!	!	!	!	!LO:TX:t=P:problem=kreska pseudotaktowa	!	!	!
.	.	.	.	2Bn\	ter-	.	.
=6	=6	=6	=6	=6	=6	=6	=6
!LO:TX:t=P:problem=kreska pseudotaktowa	!	!LO:TX:t=P:problem=kreska pseudotaktowa	!	!	!	!LO:TX:t=P:problem=kreska pseudotaktowa	!
1C	-rae	0G	-rae	1c,	-rae	0e	-re
2.C/	vi-	.	.	2.c\	vi-	.	.
!	!	!	!	!LO:TX:t=P:problem=kreska pseudotaktowa	!	!	!
4C/	-ſi-	.	.	4c\	-ſi-	.	.
=7	=7	=7	=7	=7	=7	=7	=7
2D\	-bi-	0r	.	2B-\	-bi-	1r	.
!LO:TX:t=P:problem=kreska pseudotaktowa	!	!	!	!	!	!	!
2E\	-li-	.	.	2G/	-li-	.	.
!	!	!	!	!LO:TX:t=P:problem=kreska pseudotaktowa	!	!	!
2F\	-um	.	.	1A	-um	2.c/	vi-
1F	o-	.	.	.	.	.	.
!	!	!	!	!	!	!LO:TX:t=P:problem=kreska pseudotaktowa	!
.	.	.	.	.	.	4c/	-ſi-
=8	=8	=8	=8	=8	=8	=8	=8
.	.	2.G/	vi-	2B-\	o-	2d\	-bi-
!LO:TX:t=P:problem=kreska pseudotaktowa	!	!	!	!	!	!	!
2E\	-mni-	.	.	2c\	-mni-	2e\	-li-
!	!	!LO:TX:t=P:problem=kreska pseudotaktowa	!	!	!	!	!
.	.	4G/	-ſi-	.	.	.	.
2.D/	.	2A/	-bi-	2.d\	.	2f\	-um
!	!	!LO:TX:t=P:problem=kreska pseudotaktowa	!	!	!	!	!
.	.	2Bn\	-li-	.	.	1f	om-
4D/	.	.	.	4d\	-um	.	.
=9	=9	=9	=9	=9	=9	=9	=9
*custos:G	*	*	*	*	*	*	*
!LO:TX:t=P:problem=kreska pseudotaktowa	!	!	!	!	!	!	!
1C	-um	2c\	-um	1G	.	.	.
!	!	!	!	!	!	!LO:TX:t=P:problem=kreska pseudotaktowa	!
.	.	1c	o-	.	.	2e\	-ni-
*	*	*	*	*custos:c	*	*	*
!LO:LB:g=original	!	!	!	!LO:TX:t=P:problem=kreska pseudotaktowa	!	!	!
2.G\	et	.	.	1r	.	1d	-um
.	.	2Bn\	-mni-	.	.	.	.
!LO:TX:t=P:problem=kreska pseudotaktowa	!	!	!	!	!	!	!
4G\	in	.	.	.	.	.	.
!	!	!	!	!LO:LB:g=original	!	!	!
=10	=10	=10	=10	=10	=10	=10	=10
*	*	*custos:G	*	*	*	*	*
!	!	!LO:TX:t=P:problem=kreska pseudotaktowa	!	!	!	!	!
4E\	vi-	1c	-um	2.c\	et	2.g\	Et
4C/	-ſi-	.	.	.	.	.	.
4E\	-bi-	.	.	.	.	.	.
*	*	*	*	*	*	*custos:f	*
!	!	!	!	!	!	!LO:TX:t=P:problem=kreska pseudotaktowa	!
4E\	-li-	.	.	4c\	in	4g\	in
!	!	!	!	!	!	!LO:LB:g=original	!
!LO:TX:t=P:problem=kreska pseudotaktowa	!	!	!	!	!	!	!
1D	-u(m)	1r	.	4A/	vi-	4f\	vi-
.	.	.	.	4F/	-ſi-	4d\	-ſi-
.	.	.	.	4A/	-bi-	4f\	-bi-
!	!	!	!	!	!	!LO:TX:t=P:problem=kreska pseudotaktowa	!
.	.	.	.	4A/	-li-	4f\	-li-
=11	=11	=11	=11	=11	=11	=11	=11
!	!	!	!	!LO:TX:t=P:problem=kreska pseudotaktowa	!	!	!
4r	.	2r	.	1G	-um	2e\	-u(m)
2C/	et	.	.	.	.	.	.
!	!	!LO:TX:t=P:problem=kreska pseudotaktowa	!	!	!	!	!
*	*	*	*	*	*ij	*	*ij
.	.	2.G/	et	.	.	4e\	et
!LO:TX:t=P:problem=kreska pseudotaktowa	!	!	!	!	!	!LO:TX:t=P:problem=kreska pseudotaktowa	!
4C/	in	.	.	.	.	4e\	in
4BB-/	vi-	.	.	1r	.	4d\	vi-
4GG/	-ſi-	4G/	in	.	.	4B-/	-si-
4BB-/	-bi-	4F/	vi-	.	.	4d\	-bi-
4BB-/	-li-	4D/	-ſi-	.	.	4d\	-li-
=12	=12	=12	=12	=12	=12	=12	=12
!	!	!	!	!	!	!LO:TX:t=P:problem=kreska pseudotaktowa	!
1AA	-um	2F/	-bi-	2.c\	et	1c	-um
*	*	*	*	*	*	*	*Xij
.	.	4E/	.	.	.	.	.
!	!	!LO:TX:t=P:problem=kreska pseudotaktowa	!	!LO:TX:t=P:problem=kreska pseudotaktowa	!	!	!
.	.	4F/	.	4c\	in	.	.
!LO:TX:t=P:problem=kreska pseudotaktowa	!	!	!	!	!	!	!
1GG	.	1.G	.	4B-\	vi-	1r	.
.	.	.	.	4G/	-si-	.	.
.	.	.	.	4B-\	-bi-	.	.
.	.	.	.	4B-,\	-li-	.	.
=13	=13	=13	=13	=13	=13	=13	=13
!	!	!	!	!LO:TX:t=P:problem=kreska pseudotaktowa	!	!	!
1r	.	.	.	1A,	-um	1r	.
!	!	!LO:TX:t=P:problem=kreska pseudotaktowa	!	!	!	!	!
*	*	*	*	*	*Xij	*	*
.	.	2F#X/	-li-	.	.	.	.
2r	.	2G/	-um	2G/	et	2r	.
1C	Et	1c	et	1G	in	1e	et
=14	=14	=14	=14	=14	=14	=14	=14
.	.	.	.	.	.	.	in
!LO:TX:t=P:problem=kreska pseudotaktowa	!	!LO:TX:t=P:problem=kreska pseudotaktowa	!	!LO:TX:t=P:problem=kreska pseudotaktowa	!	!LO:TX:t=P:problem=kreska pseudotaktowa	!
2C/	in	2c\	in	2G/	u-	2e\	u-
1C	u-	1c	u-	1G	-num	1e	-num
=15	=15	=15	=15	=15	=15	=15	=15
!LO:TX:t=P:problem=kreska pseudotaktowa	!	!LO:TX:t=P:problem=kreska pseudotaktowa	!	!LO:TX:t=P:problem=kreska pseudotaktowa	!	!LO:TX:t=P:problem=kreska pseudotaktowa	!
1C	-num	1c	-num	1G	D(o)-	1e	D(o)-
1.BB-	D(o)-	1.d	do-	1.B-	-(mi)-	1.f	-(mi)-
=16	=16	=16	=16	=16	=16	=16	=16
.	.	.	.	.	.	.	.
2FF/	-(mi)-	2c\	-mi-	2A/	-num	2f\	-num
!LO:TX:t=P:problem=kreska pseudotaktowa	!	!LO:TX:t=P:problem=kreska pseudotaktowa	!	!LO:TX:t=P:problem=kreska pseudotaktowa	!	!LO:TX:t=P:problem=kreska pseudotaktowa	!
1C	-num	1c	-num	1G	.	1e	Je-
=17	=17	=17	=17	=17	=17	=17	=17
0D	Je-	2.A/	Je-	2.F/	Je-	0d	-ſum
.	.	4G/	.	4G/	.	.	.
.	.	1F	.	1A	.	.	.
=18	=18	=18	=18	=18	=18	=18	=18
!LO:TX:t=P:problem=kreska pseudotaktowa	!	!LO:TX:t=P:problem=kreska pseudotaktowa	!	!LO:TX:t=P:problem=kreska pseudotaktowa	!	!LO:TX:t=P:problem=kreska pseudotaktowa	!
1AA	-ſum	1E	.	1A	-ſum	1c	Chri-
1.BB-	Chri-	2D/	-ſum	0F	Chri-	2.B-/	.
.	.	1d	Chri-	.	.	.	.
.	.	.	.	.	.	4c/	.
=19	=19	=19	=19	=19	=19	=19	=19
.	.	.	.	.	.	4d\	.
.	.	.	.	.	.	4e\	.
!	!	!LO:TX:t=P:problem=kreska pseudotaktowa	!	!	!	!	!
2AA/	.	2c\	.	.	.	1f	.
0GG	.	0B-	.	0G	.	.	.
.	.	.	.	.	.	4e\	.
!	!	!	!	!	!	!LO:TX:t=P:problem=kreska pseudotaktowa	!
.	.	.	.	.	.	4d\	.
=20	=20	=20	=20	=20	=20	=20	=20
!	!	!	!	!LO:TX:t=P:problem=kreska pseudotaktowa	!	!	!
.	.	.	.	.	.	1e	.
*custos:F	*	*	*	*custos:c	*	*	*
!	!	!LO:TX:t=P:problem=kreska pseudotaktowa	!	!	!	!LO:TX:t=P:problem=kreska pseudotaktowa	!
1FF	-ſtum	1A	-ſtum	2C/	-ſtum	1f	-ſtum
!	!	!	!	!LO:LB:g=original	!	!	!
.	.	.	.	2.c\	fi-	.	.
!LO:LB:g=original	!	!	!	!	!	!	!
=21	=21	=21	=21	=21	=21	=21	=21
*	*	*custos:A	*	*	*	*	*
2r	.	2r	.	.	.	2r	.
.	.	.	.	4c\	-li-	.	.
!	!	!LO:LB:g=original	!	!	!	!	!
!	!	!	!	!LO:TX:t=P:problem=kreska pseudotaktowa	!	!	!
2.F\	fi-	2.A/	fi-	2c\	-um	2.f\	fi-
.	.	.	.	1.A	De-	.	.
4F\	-li-	4A/	-li-	.	.	4f\	-li-
!LO:TX:t=P:problem=kreska pseudotaktowa	!	!LO:TX:t=P:problem=kreska pseudotaktowa	!	!	!	!LO:TX:t=P:problem=kreska pseudotaktowa	!
2F\	-um	2c\	-um	.	.	2f\	-um
=22	=22	=22	=22	=22	=22	=22	=22
1.D	De-	1d	De-	.	.	1.f	De-
!	!	!	!	!LO:TX:t=P:problem=kreska pseudotaktowa	!	!	!
.	.	.	.	2F/	-i	.	.
!	!	!LO:TX:t=P:problem=kreska pseudotaktowa	!	!	!	!	!
.	.	1d	-i	1.B-	u-	.	.
*	*	*	*	*	*	*custos:g	*
!LO:TX:t=P:problem=kreska pseudotaktowa	!	!	!	!	!	!LO:TX:t=P:problem=kreska pseudotaktowa	!
2BB-/	-i	.	.	.	.	2f\	-i
!	!	!	!	!	!	!LO:LB:g=original	!
=23	=23	=23	=23	=23	=23	=23	=23
1E-X	u-	1G	u-	.	.	1g	u-
!	!	!	!	!LO:TX:t=P:problem=kreska pseudotaktowa	!	!	!
.	.	.	.	2B-\	-ni	.	.
!LO:TX:t=P:problem=kreska pseudotaktowa	!	!	!	!	!	!LO:TX:t=P:problem=kreska pseudotaktowa	!
1E-	-ni	2G/	-ni	2.c\	ge-	1g	-ni
.	.	1e-X	ge-	.	.	.	.
.	.	.	.	4B-\	.	.	.
=24	=24	=24	=24	=24	=24	=24	=24
1.F	ge-	.	.	2A/	.	1.f	ge-
!	!	!LO:TX:t=P:problem=kreska pseudotaktowa	!	!	!	!	!
.	.	2d\	.	1B-	.	.	.
.	.	2.c\	.	.	.	.	.
!	!	!	!	!LO:TX:t=P:problem=kreska pseudotaktowa	!	!	!
2F\	-ni-	.	.	2A/	-ni-	2f\	-ni-
!	!	!LO:TX:t=P:problem=kreska pseudotaktowa	!	!	!	!	!
.	.	4c\	-ni-	.	.	.	.
=25	=25	=25	=25	=25	=25	=25	=25
!LO:TX:t=P:problem=kreska pseudotaktowa	!	!	!	!LO:TX:t=P:problem=kreska pseudotaktowa	!	!LO:TX:t=P:problem=kreska pseudotaktowa	!
1BB-	-tum	1d	-tum	1B-,	-tum	1f	-tum
2.F\	et	2.c\	et	2.A/	et	2.f\	et
!	!	!LO:TX:t=P:problem=kreska pseudotaktowa	!	!	!	!	!
4F\	ex	4c\	ex	4A/	ex	4f\	ex
=26	=26	=26	=26	=26	=26	=26	=26
2F\	Pa-	2c\	Pa-	2A/	Pa-	2f\	Pa-
!LO:TX:t=P:problem=kreska pseudotaktowa	!	!	!	!LO:TX:t=P:problem=kreska pseudotaktowa	!	!LO:TX:t=P:problem=kreska pseudotaktowa	!
2C/	-tre	2c\	-tre	2G/	-tre	2e\	-tre
1D	na-	2A/	na-	1F	na-	1d	na-
.	.	2Bn\	-tum	.	.	.	.
=27	=27	=27	=27	=27	=27	=27	=27
!LO:TX:t=P:problem=kreska pseudotaktowa	!	!LO:TX:t=P:problem=kreska pseudotaktowa	!	!LO:TX:t=P:problem=kreska pseudotaktowa	!	!LO:TX:t=P:problem=kreska pseudotaktowa	!
1C	-tum	1c	an-	1G	-tum	1e	-tum
1GG	an-	1d	-te	1B-	an-	1g	an-
=28	=28	=28	=28	=28	=28	=28	=28
2D/	-te	2d\	o-	2A/	-te	2f\	-te
2.E-X\	om-	2.B-\	-mni-	2.G/	om-	2.e-X\	o-
4E-\	-ni-	4B-\	-a	4G/	-ni-	4e-\	-mni-
!LO:TX:t=P:problem=kreska pseudotaktowa	!	!LO:TX:t=P:problem=kreska pseudotaktowa	!	!LO:TX:t=P:problem=kreska pseudotaktowa	!	!LO:TX:t=P:problem=kreska pseudotaktowa	!
2F\	-a	2A/	.	2F/	-a	2c/	-a
=29	=29	=29	=29	=29	=29	=29	=29
2.C/	ſe-	2.G/	ſe-	2F/	ſae-	2.c/	ſe-
*	*	*	*	*custos:F	*	*	*
.	.	.	.	2E/	-cu-	.	.
4C/	-cu-	4G/	-cu-	.	.	4c/	-cu-
*	*	*custos:F	*	*	*	*	*
!	!	!	!	!LO:LB:g=original	!	!	!
!	!	!LO:TX:t=P:problem=kreska pseudotaktowa	!	!	!	!LO:TX:t=P:problem=kreska pseudotaktowa	!
2FF,/	-la	1A	-la	2F/	-la	1c	-la
*custos:E	*	*	*	*	*	*	*
!	!	!LO:LB:g=original	!	!	!	!	!
!LO:TX:t=P:problem=kreska pseudotaktowa	!	!	!	!LO:TX:t=P:problem=kreska pseudotaktowa	!	!	!
2F\	De-	.	.	2F/	De-	.	.
!LO:LB:g=original	!	!	!	!	!	!	!
=30	=30	=30	=30	=30	=30	=30	=30
2E\	-um	0r	.	2G/	-um	0r	.
!LO:TX:t=P:problem=kreska pseudotaktowa	!	!	!	!	!	!	!
2D/	de	.	.	2B-\	de	.	.
2F\	De-	.	.	4A/	De-	.	.
.	.	.	.	4B-\	.	.	.
2E\	.	.	.	1c	.	.	.
=31	=31	=31	=31	=31	=31	=31	=31
1D	.	2r	.	.	.	2r	.
!	!	!LO:TX:t=P:problem=kreska pseudotaktowa	!	!LO:TX:t=P:problem=kreska pseudotaktowa	!	!	!
.	.	2F/	lu-	2Bn\	.	2f\	lu-
2C/	-o	2G/	-men	2c\	-o	2e\	-men
!LO:TX:t=P:problem=kreska pseudotaktowa	!	!	!	!LO:TX:t=P:problem=kreska pseudotaktowa	!	!LO:TX:t=P:problem=kreska pseudotaktowa	!
2r	.	2B-\	de	2r	.	2d\	de
=32	=32	=32	=32	=32	=32	=32	=32
0r	.	4A/	lu-	0r	.	(2f\	lu-
.	.	4B-\	.	.	.	.	.
.	.	1c	.	.	.	2e\	.
.	.	.	.	.	.	2.d\)	.
.	.	2Bn\	-mi-	.	.	.	.
.	.	.	.	.	.	4d\	-mi-
=33	=33	=33	=33	=33	=33	=33	=33
!	!	!LO:TX:t=P:problem=kreska pseudotaktowa	!	!	!	!LO:TX:t=P:problem=kreska pseudotaktowa	!
2r	.	1c	-ne	2r	.	1c	-ne
2.F\	De-	.	.	2.A/	De-	.	.
.	.	1r	.	.	.	1r	.
4D/	um	.	.	4B-\	-um	.	.
!LO:TX:t=P:problem=kreska pseudotaktowa	!	!	!	!	!	!	!
2E\	Ve-	.	.	2G/	ve-	.	.
=34	=34	=34	=34	=34	=34	=34	=34
!LO:TX:t=P:problem=kreska pseudotaktowa	!	!	!	!LO:TX:t=P:problem=kreska pseudotaktowa	!	!	!
1F	-ru(m)	2c\	de	1F	-ru(m)	2c/	de
.	.	2.A/	De-	.	.	2.f\	De-
1r	.	.	.	1r	.	.	.
*	*	*	*	*	*	*custos:e	*
.	.	4B-\	-o	.	.	4d\	-o
!	!	!	!	!	!	!LO:LB:g=original	!
!	!	!LO:TX:t=P:problem=kreska pseudotaktowa	!	!	!	!	!
.	.	2G/	ve-	.	.	2e\	ve-
=35	=35	=35	=35	=35	=35	=35	=35
!	!	!	!	!	!	!LO:TX:t=P:problem=kreska pseudotaktowa	!
2.F\	ge-	1F	-ro	2.A/	ge-	1f	-ro
!LO:TX:t=P:problem=kreska pseudotaktowa	!	!	!	!LO:TX:t=P:problem=kreska pseudotaktowa	!	!	!
4F\	-ni-	.	.	4A/	-ni-	.	.
2F\	-tum	1r	.	2A/	-tum	1r	.
2C/	non	.	.	2c\	non	.	.
=36	=36	=36	=36	=36	=36	=36	=36
!	!	!LO:TX:t=P:problem=kreska pseudotaktowa	!	!	!	!	!
2D/	fa-	0r	.	1B-	fa-	1r	.
!LO:TX:t=P:problem=kreska pseudotaktowa	!	!	!	!	!	!	!
2E\	.	.	.	.	.	.	.
*lig	*	*	*	*	*	*	*
!LO:N:vis=0	!	!	!	!	!	!	!
1F	-ctum	.	.	1A	-ctu(m)	2.f\	con-
.	.	.	.	.	.	4f\	-ſub-
=37	=37	=37	=37	=37	=37	=37	=37
!LO:N:vis=0	!	!	!	!LO:TX:t=P:problem=kreska pseudotaktowa	!	!	!
1C	.	2.c\	con-	0G	.	2e\	-ſtan-
.	.	.	.	.	.	2c/	-ti-
.	.	4c\	-ſub-	.	.	.	.
!	!	!	!	!	!	!LO:TX:t=P:problem=kreska pseudotaktowa	!
*Xlig	*	*	*	*	*	*	*
1r	.	2B-\	-ſtan-	.	.	2d\	-a-
.	.	2G/	-ti-	.	.	2e\	-lem
=38	=38	=38	=38	=38	=38	=38	=38
2.F\	con-	4A/	-a-	1r	.	4f\	Pa-
.	.	4B-\	-lem	.	.	4g\	.
.	.	1c	Pa-	.	.	4a\	.
!	!	!	!	!	!	!LO:TX:t=P:problem=kreska pseudotaktowa	!
4F\	-ſub-	.	.	.	.	4f\	.
2E\	-ſtan-	.	.	2.c\	con-	2g\	.
!LO:TX:t=P:problem=kreska pseudotaktowa	!	!LO:TX:t=P:problem=kreska pseudotaktowa	!	!	!	!	!
2C/	-ti-	2G/	.	.	.	2e\	.
.	.	.	.	4c\	-ſub-	.	.
=39	=39	=39	=39	=39	=39	=39	=39
2D/	-a-	2d\	-tri	2B-\	-ſtan-	2f\	.
!	!	!	!	!LO:TX:t=P:problem=kreska pseudotaktowa	!	!	!
2E\	-lem	2c\	.	2G/	-ti-	2g\	.
!	!	!	!	!	!	!LO:TX:t=P:problem=kreska pseudotaktowa	!
2F\	Pa-	4r	.	2A/	-a-	1f	-tri
.	.	2f\	con-	.	.	.	.
!LO:TX:t=P:problem=kreska pseudotaktowa	!	!	!	!	!	!	!
2D/	-tri	.	.	2B-\	-lem	.	.
*	*	*custos:e	*	*	*	*	*
!	!	!LO:TX:t=P:problem=kreska pseudotaktowa	!	!	!	!	!
.	.	4f\	-ſub-	.	.	.	.
!	!	!LO:LB:g=original	!	!	!	!	!
=40	=40	=40	=40	=40	=40	=40	=40
*	*	*	*	*custos:G	*	*	*
2.C/	con-	2e\	-ſtan-	1c	Pa-	1r	.
!	!	!LO:TX:t=P:problem=kreska pseudotaktowa	!	!	!	!	!
.	.	2c\	-ti-	.	.	.	.
*custos:BB	*	*	*	*	*	*	*
4C/	-ſub-	.	.	.	.	.	.
*	*	*	*	*	*	*	*ij
!LO:LB:g=original	!	!	!	!LO:LB:g=original	!	!	!
2BB-/	-ſtan-	2d\	-a-	1G	-tri	2.g\	con-
!LO:TX:t=P:problem=kreska pseudotaktowa	!	!LO:TX:t=P:problem=kreska pseudotaktowa	!	!	!	!	!
2GG/	-ti-	2e\	-lem	.	.	.	.
.	.	.	.	.	.	4g\	-sub-
=41	=41	=41	=41	=41	=41	=41	=41
!	!	!LO:TX:t=P:problem=kreska pseudotaktowa	!	!	!	!	!
2AA/	-a-	1f	Pa-	1r	.	2f\	-stan-
!	!	!	!	!	!	!LO:TX:t=P:problem=kreska pseudotaktowa	!
2BB-/	-lem	.	.	.	.	2d\	-ti-
2C/	Pa-	2c,\	-tri	2.c\	con-	2e\	-a-
!LO:TX:t=P:problem=kreska pseudotaktowa	!	!	!	!	!	!	!
2AA/	.	1F	co(n)-	.	.	2f\	-lem
!	!	!	!	!LO:TX:t=P:problem=kreska pseudotaktowa	!	!	!
.	.	.	.	4c\	-ſub-	.	.
=42	=42	=42	=42	=42	=42	=42	=42
1GG	.	.	.	2B-\	-ſtan-	1g	Pa-
!	!	!LO:TX:t=P:problem=kreska pseudotaktowa	!	!LO:TX:t=P:problem=kreska pseudotaktowa	!	!	!
.	.	2E/	-ſub-	2G/	-ti-	.	.
!	!	!	!	!	!	!LO:TX:t=P:problem=kreska pseudotaktowa	!
1FF	.	2.F/	-ſtan-	4A\	-a-	1c	-tri
*	*	*	*	*	*	*	*Xij
.	.	.	.	4B-\	-lem	.	.
.	.	.	.	1c	Pa-	.	.
.	.	4E/	-ti-	.	.	.	.
=43	=43	=43	=43	=43	=43	=43	=43
!LO:TX:t=P:problem=kreska pseudotaktowa	!	!	!	!	!	!	!
1GG	.	4D/	-a-	.	.	2r	.
.	.	4C/	-lem	.	.	.	.
!	!	!LO:TX:t=P:problem=kreska pseudotaktowa	!	!LO:TX:t=P:problem=kreska pseudotaktowa	!	!	!
.	.	2D/	Pa-	2Bn\	.	1g	per-
2C,/	-tri	2E,/	-tri	2c,\	-tri	.	.
!	!	!	!	!	!	!LO:TX:t=P:problem=kreska pseudotaktowa	!
1C	per-	1G	Per-	1c	per-	2g\	-quem
=44	=44	=44	=44	=44	=44	=44	=44
.	-quem	.	.	.	.	2.e\	om-
!LO:TX:t=P:problem=kreska pseudotaktowa	!	!LO:TX:t=P:problem=kreska pseudotaktowa	!	!LO:TX:t=P:problem=kreska pseudotaktowa	!	!	!
2C/	om-	2G/	-quem	2c\	-que(m)	.	.
!	!	!	!	!	!	!LO:TX:t=P:problem=kreska pseudotaktowa	!
.	.	.	.	.	.	4e\	-ni-
2.F\	-ni-	2.A/	o-	2.c\	o-	2f,\	-a
.	.	.	.	.	.	2.a\	fa-
4F\	-a	4A/	-mni-	4c\	-mni-	.	.
=45	=45	=45	=45	=45	=45	=45	=45
!LO:TX:t=P:problem=kreska pseudotaktowa	!	!	!	!	!	!	!
1D	fa-	2A/	-a	2d\	-a	.	.
*	*	*	*	*	*	*custos:f	*
.	.	.	.	.	.	4g\	.
!	!	!	!	!	!	!LO:LB:g=original	!
!	!	!	!	!	!	!LO:TX:t=P:problem=kreska pseudotaktowa	!
.	.	1d	fa-	1A	fa-	2f\	.
2.AA/	-cta	.	.	.	.	2.e\	.
!	!	!LO:TX:t=P:problem=kreska pseudotaktowa	!	!LO:TX:t=P:problem=kreska pseudotaktowa	!	!	!
.	.	2c#X\	-cta	2A/	-cta	.	.
4AA/	ſunt	.	.	.	.	4e\	-cta
=46	=46	=46	=46	=46	=46	=46	=46
2D/	qui	2d\	ſunt	2A,/	ſunt	2f#X,\	ſunt
!LO:TX:t=P:problem=kreska pseudotaktowa	!	!	!	!	!	!LO:TX:t=P:problem=kreska pseudotaktowa	!
2D/	pro-	2d\	qui	2A/	qui	2f#X\	qui
2G\	-pter	2d\	pro-	2Bn\	pro-	2g\	pro-
4G\	nos	4d\	-pter	4Bn\	-pter	4g\	-pter
!	!	!LO:TX:t=P:problem=kreska pseudotaktowa	!	!LO:TX:t=P:problem=kreska pseudotaktowa	!	!	!
4G\	h(o)-	4d\	nos	4Bn\	nos	4g\	nos
=47	=47	=47	=47	=47	=47	=47	=47
2.C/	-(mi)-	2.e\	ho-	2.c\	h(o)-	2.g\	h(o)-
*	*	*custos:e	*	*	*	*	*
!LO:TX:t=P:problem=kreska pseudotaktowa	!	!	!	!	!	!LO:TX:t=P:problem=kreska pseudotaktowa	!
4C/	-nes	4e\	-mi-	4c\	-(mi)-	4g\	-(mi)-
!	!	!LO:LB:g=original	!	!	!	!	!
2C/	et	2e\	-nes	2c\	-nes	2g,\	-nes
!	!	!	!	!LO:TX:t=P:problem=kreska pseudotaktowa	!	!	!
2C/	pro-	2e\	et	2c\	et	2g\	et
=48	=48	=48	=48	=48	=48	=48	=48
!LO:TX:t=P:problem=kreska pseudotaktowa	!	!	!	!	!	!	!
1F	-pter	2f\	pro-	2c\	pro-	1a	pro-
!	!	!LO:TX:t=P:problem=kreska pseudotaktowa	!	!	!	!	!
.	.	2c\	-pter	2A/	-pter	.	.
2D\	no-	2d\	no-	2.B-\	no-	2f,\	-pter
2.E-X\	-ſtram	1B-	-ſtram	.	.	2.g\	noſ-
*	*	*	*	*custos:G	*	*	*
!	!	!	!	!LO:TX:t=P:problem=kreska pseudotaktowa	!	!	!
.	.	.	.	4B-\	-ſtra(m)	.	.
!	!	!	!	!LO:LB:g=original	!	!	!
=49	=49	=49	=49	=49	=49	=49	=49
*custos:D	*	*	*	*	*	*	*
.	.	.	.	2G/	ſa-	.	.
4E-X\	.	.	.	.	.	4g\	-tra(m)
!LO:TX:t=P:problem=kreska pseudotaktowa	!	!	!	!	!	!LO:TX:t=P:problem=kreska pseudotaktowa	!
!LO:LB:g=original	!	!	!	!	!	!	!
2D/	ſa-	2B-\	ſa-	1B-	.	2f\	ſa-
1C	-lu-	1c	-lu-	.	.	1e-X	-lu-
.	.	.	.	2A/	-lu-	.	.
=50	=50	=50	=50	=50	=50	=50	=50
!LO:TX:t=P:problem=kreska pseudotaktowa	!	!LO:TX:t=P:problem=kreska pseudotaktowa	!	!	!	!	!
1BB-	-tem	1F	-tem	0B-	-tem	2d\	-tem
!	!	!	!	!	!	!LO:TX:t=P:problem=kreska pseudotaktowa	!
.	.	.	.	.	.	2f\	de-
2r	.	2f\	de-	.	.	1d	-ſcen-
2B-\	de-	1d	-ſcen-	.	.	.	.
=51	=51	=51	=51	=51	=51	=51	=51
!	!	!	!	!LO:TX:t=P:problem=kreska pseudotaktowa	!	!	!
1G	-ſcen-	.	.	1r	.	2B-/	-dit
!	!	!LO:TX:t=P:problem=kreska pseudotaktowa	!	!	!	!LO:TX:t=P:problem=kreska pseudotaktowa	!
.	.	2B-\	-dit	.	.	2g\	de
!LO:TX:t=P:problem=kreska pseudotaktowa	!	!	!	!	!	!	!
1F	-dit	2c\	de	2r	.	2.a\	coe-
.	.	2.d\	coe-	2f\	de-	.	.
!	!	!	!	!	!	!LO:TX:t=P:problem=kreska pseudotaktowa	!
.	.	.	.	.	.	4g\	.
=52	=52	=52	=52	=52	=52	=52	=52
2r	.	.	.	1d	-ſcen-	4f\	.
.	.	4c\	.	.	.	4e\	.
!	!	!LO:TX:t=P:problem=kreska pseudotaktowa	!	!	!	!	!
2G\	de	2B-\	.	.	.	4d\	.
!	!	!	!	!	!	!LO:TX:t=P:problem=kreska pseudotaktowa	!
.	.	.	.	.	.	4g\	.
!	!	!	!	!LO:TX:t=P:problem=kreska pseudotaktowa	!	!	!
2.A\	coe-	1.A	-lis	1c	-dit	2e\	-lis
.	.	.	.	.	.	2.a\	de
4G\	.	.	.	.	.	.	.
=53	=53	=53	=53	=53	=53	=53	=53
4F\	.	.	.	2c\	de	.	.
*	*	*	*	*	*	*custos:f	*
4E\	.	.	.	.	.	4g\	.
!	!	!	!	!	!	!LO:LB:g=original	!
!	!	!LO:TX:t=P:problem=kreska pseudotaktowa	!	!	!	!LO:TX:t=P:problem=kreska pseudotaktowa	!
4D/	.	2A/	de	2.d\	coe-	2f\	.
!LO:TX:t=P:problem=kreska pseudotaktowa	!	!	!	!	!	!	!
4C/	.	.	.	.	.	.	.
1BB-	.	2B-\	coe-	.	.	1f	coe-
.	.	.	.	4c\	.	.	.
!	!	!LO:TX:t=P:problem=kreska pseudotaktowa	!	!	!	!	!
.	.	2.d\	.	4B-\	.	.	.
.	.	.	.	4A/	.	.	.
=54	=54	=54	=54	=54	=54	=54	=54
1C	.	.	.	0G	-lis	1e	.
.	.	4c\	.	.	.	.	.
.	.	1c	.	.	.	.	.
1GG	.	.	.	.	.	1d	-lis
.	.	2Bn\	.	.	.	.	.
=55	=55	=55	=55	=55	=55	=55	=55
0C;	-lis	0c;	-lis	0E;	.	0c;	.
=56||	=56||	=56||	=56||	=56||	=56||	=56||	=56||
*M2/1	*	*M2/1	*	*M2/1	*	*M2/1	*
*met(c|)	*	*met(c|)	*	*met(c|)	*	*met(c|)	*
!	!	!	!	!	!	!LO:TX:t=P:problem=kreska pseudotaktowa	!
0GG	Et	0Bn	Et	0G	Et	0d	Et
=57	=57	=57	=57	=57	=57	=57	=57
!LO:TX:t=P:problem=kreska pseudotaktowa	!	!LO:TX:t=P:problem=kreska pseudotaktowa	!	!LO:TX:t=P:problem=kreska pseudotaktowa	!	!	!
1C	in	1c	in-	1G	in-	1e	in-
!	!	!	!	!	!	!LO:TX:t=P:problem=kreska pseudotaktowa	!
1BB-	car-	2d\	-car-	2B-\	-car-	1f	-car-
.	.	1d	-na-	2.B-\	.	.	.
=58	=58	=58	=58	=58	=58	=58	=58
1.E-X	-na-	.	.	.	.	1.g	-na-
.	.	.	.	4A/	-na-	.	.
.	.	4c\	.	4G/	.	.	.
.	.	4B-\	.	4F/	.	.	.
.	.	2c\	.	2G/	.	.	.
!LO:TX:t=P:problem=kreska pseudotaktowa	!	!LO:TX:t=P:problem=kreska pseudotaktowa	!	!	!	!	!
2E-\	-tus	2c\	-tus	2G/	-tus	2g\	-tus
=59	=59	=59	=59	=59	=59	=59	=59
!	!	!	!	!LO:TX:t=P:problem=kreska pseudotaktowa	!	!LO:TX:t=P:problem=kreska pseudotaktowa	!
0D	eſt	0d	eſt	0A	eſt	0f#X	eſt
=60	=60	=60	=60	=60	=60	=60	=60
2r	.	2r	.	2r	.	2r	.
!LO:TX:t=P:problem=kreska pseudotaktowa	!	!LO:TX:t=P:problem=kreska pseudotaktowa	!	!LO:TX:t=P:problem=kreska pseudotaktowa	!	!LO:TX:t=P:problem=kreska pseudotaktowa	!
2GG/	de	2d\	de	2G/	de	2g\	de
*custos:C	*	*	*	*	*	*	*
1C	Spi-	2.c\	Spi-	2.G/	Spi-	1e,	ſpi-
.	.	4c\	-ri-	4G/	-ri-	.	.
!LO:LB:g=original	!	!	!	!	!	!	!
=61	=61	=61	=61	=61	=61	=61	=61
*	*	*	*	*custos:A	*	*	*
2C/	-ri-	2G/	-tu	2E/	-tu	2e\	-ri-
!LO:TX:t=P:problem=kreska pseudotaktowa	!	!	!	!	!	!LO:TX:t=P:problem=kreska pseudotaktowa	!
!	!	!	!	!LO:LB:g=original	!	!	!
2AA/	-tu	1c	San-	1A	San-	2e\	-tu
1D	San-	.	.	.	.	1f,	ſan-
!	!	!	!	!LO:TX:t=P:problem=kreska pseudotaktowa	!	!	!
.	.	2Bn\	.	2F/	-cto	.	.
=62	=62	=62	=62	=62	=62	=62	=62
!LO:TX:t=P:problem=kreska pseudotaktowa	!	!LO:TX:t=P:problem=kreska pseudotaktowa	!	!LO:TX:t=P:problem=kreska pseudotaktowa	!	!LO:TX:t=P:problem=kreska pseudotaktowa	!
1C	-cto	1c	-cto	1G	.	1e	-cto
2r	.	2r	.	2r	.	2r	.
1BB-	ex	1d	ex	1B-	ex	1f	ex
=63	=63	=63	=63	=63	=63	=63	=63
.	.	.	.	.	.	.	.
!LO:TX:t=P:problem=kreska pseudotaktowa	!	!	!	!	!	!LO:TX:t=P:problem=kreska pseudotaktowa	!
2BB-/	Ma-	2d\	Ma-	2B-\	Ma-	2f\	Ma-
2E-X\	-ri-	2e-X\	-ri-	4G/	-ri-	2g\	-ri-
.	.	.	.	4A/	-a	.	.
!	!	!LO:TX:t=P:problem=kreska pseudotaktowa	!	!	!	!	!
2BB-/	-a	2d\	-a	1B-	vir-	2f\	-a
=64	=64	=64	=64	=64	=64	=64	=64
2.FF/	vir-	2.c\	vir-	.	.	2.f\	vir-
!	!	!	!	!LO:TX:t=P:problem=kreska pseudotaktowa	!	!	!
.	.	.	.	2A/	-gi-	.	.
!LO:TX:t=P:problem=kreska pseudotaktowa	!	!	!	!	!	!	!
4FF/	-gi-	4c\	-gi-	.	.	4f\	-gi-
!LO:TX:t=P:problem=kreska pseudotaktowa	!	!LO:TX:t=P:problem=kreska pseudotaktowa	!	!	!	!LO:TX:t=P:problem=kreska pseudotaktowa	!
1BB-	-ne	1d	-ne	1B-	-ne	1f	-ne
=65	=65	=65	=65	=65	=65	=65	=65
2r	.	2r	.	2r	.	2r	.
!LO:TX:t=P:problem=kreska pseudotaktowa	!	!	!	!LO:TX:t=P:problem=kreska pseudotaktowa	!	!LO:TX:t=P:problem=kreska pseudotaktowa	!
2BB-/	Et	1d	et	2B-\	et	2f\	et
1FF	ho-	.	.	1.A	ho-	[2f	ho-
*	*	*	*	*	*	*custos:d	*
.	.	1c	ho-	.	.	2f]	.
!	!	!	!	!	!	!LO:LB:g=original	!
=66	=66	=66	=66	=66	=66	=66	=66
*	*	*custos:B	*	*	*	*	*
!LO:TX:t=P:problem=kreska pseudotaktowa	!	!	!	!	!	!LO:TX:t=P:problem=kreska pseudotaktowa	!
1GG	-mo	.	.	.	.	1d	-mo
!	!	!LO:TX:t=P:problem=kreska pseudotaktowa	!	!	!	!	!
.	.	2B-\	-mo	1G	-mo	.	.
1D	fa-	2A/	fa-	.	.	1.d	fa-
!	!	!	!	!LO:TX:t=P:problem=kreska pseudotaktowa	!	!	!
!	!	!	!	!LO:LB:g=original	!	!	!
.	.	2.B-\	.	2F#X/	fa-	.	.
=67	=67	=67	=67	=67	=67	=67	=67
!LO:TX:t=P:problem=kreska pseudotaktowa	!	!	!	!	!	!	!
1E-X	-ctus	.	.	2.G/	.	.	.
.	.	4A/	.	.	.	.	.
!	!	!	!	!	!	!LO:TX:t=P:problem=kreska pseudotaktowa	!
.	.	1G	.	.	.	2c/	.
!	!	!	!	!LO:TX:t=P:problem=kreska pseudotaktowa	!	!	!
.	.	.	.	4A/	.	.	.
1.D	.	.	.	2B-\	.	1.d	.
.	.	4F#X/	.	4A/	.	.	.
!	!	!LO:TX:t=P:problem=kreska pseudotaktowa	!	!	!	!	!
.	.	4E/	.	4G/	.	.	.
=68	=68	=68	=68	=68	=68	=68	=68
.	.	2F#X/	-ctus	2A/	-ct(us)	.	.
!	!	!	!	!LO:TX:t=P:problem=kreska pseudotaktowa	!	!	!
2D/	eſt	2F#X/	.	2A/	.	2d\	-ctus
!LO:N:vis=0	!	!LO:N:vis=0	!	!LO:N:vis=0	!	!LO:N:vis=0	!
1GG;	.	1G;	eſt	1G;	eſt.	1d;>	eſt
=69||	=69||	=69||	=69||	=69||	=69||	=69||	=69||
*M2/1	*	*M2/1	*	*M2/1	*	*M2/1	*
*met(c)	*	*met(c)	*	*met(c)	*	*met(c)	*
0r	.	0r	.	1.G	Cru-	0r	.
!	!	!	!	!LO:TX:t=P:problem=kreska pseudotaktowa	!	!	!
.	.	.	.	2F#X/	-ci-	.	.
=70	=70	=70	=70	=70	=70	=70	=70
!LO:TX:t=P:problem=kreska pseudotaktowa	!	!	!	!	!	!	!
1r	.	0r	.	1B-	-fi-	0r	.
!	!	!	!	!LO:TX:t=P:problem=kreska pseudotaktowa	!	!	!
1.D	Cru-	.	.	1A	-xus	.	.
=71	=71	=71	=71	=71	=71	=71	=71
!	!	!LO:TX:t=P:problem=kreska pseudotaktowa	!	!	!	!	!
.	.	1r	.	1.d	e-	0r	.
!LO:TX:t=P:problem=kreska pseudotaktowa	!	!	!	!	!	!	!
2BB-/	-ci-	.	.	.	.	.	.
1E-X	-fi-	1.G	Cru-	.	.	.	.
.	.	.	.	2c\	-ti-	.	.
=72	=72	=72	=72	=72	=72	=72	=72
!LO:TX:t=P:problem=kreska pseudotaktowa	!	!	!	!	!	!	!
1D	-xus	.	.	2B-\	-am	0r	.
!	!	!	!	!LO:TX:t=P:problem=kreska pseudotaktowa	!	!	!
.	.	2F/	-ci-	2A/	pro	.	.
!	!	!LO:TX:t=P:problem=kreska pseudotaktowa	!	!	!	!	!
1.G	e-	1B-	-fi-	4G/	no-	.	.
.	.	.	.	4A/	.	.	.
.	.	.	.	4B-\	.	.	.
.	.	.	.	4c\	.	.	.
=73	=73	=73	=73	=73	=73	=73	=73
!	!	!	!	!	!	!LO:TX:t=P:problem=kreska pseudotaktowa	!
.	.	2A,/	-xus	2d\	.	0r	.
!	!	!	!	!LO:TX:t=P:problem=kreska pseudotaktowa	!	!	!
2F\	-ti-	1d	e-	2.A/	.	.	.
2E-X\	-am	.	.	.	.	.	.
.	.	.	.	4G/	.	.	.
!LO:TX:t=P:problem=kreska pseudotaktowa	!	!LO:TX:t=P:problem=kreska pseudotaktowa	!	!	!	!	!
2E-\	pro	2c\	-ti-	[2G/	.	.	.
=74	=74	=74	=74	=74	=74	=74	=74
1D	no-	2B-\	-am	2G/]	.	1.d	cru-
.	.	2A/	pro	2F#X/	.	.	.
!LO:TX:t=P:problem=kreska pseudotaktowa	!	!	!	!	!	!	!
1GG	-bis	1.B-	no-	0G	-bis	.	.
.	.	.	.	.	.	2B-/	-ci-
=75	=75	=75	=75	=75	=75	=75	=75
!	!	!	!	!LO:TX:t=P:problem=kreska pseudotaktowa	!	!	!
2r	.	.	.	.	.	1e-X	-fi-
1C	cru-	2c\	.	.	.	.	.
!	!	!LO:TX:t=P:problem=kreska pseudotaktowa	!	!	!	!LO:TX:t=P:problem=kreska pseudotaktowa	!
.	.	1G	-bis	2r	.	1d	-xus
!LO:TX:t=P:problem=kreska pseudotaktowa	!	!	!	!	!	!	!
2BBn/	-ci-	.	.	1d	e-	.	.
=76	=76	=76	=76	=76	=76	=76	=76
*	*	*custos:d	*	*	*	*	*
1E-X	-fi-	1r	.	.	.	1.g	e-
!	!	!	!	!LO:TX:t=P:problem=kreska pseudotaktowa	!	!	!
.	.	.	.	2c\	-ti-	.	.
!LO:TX:t=P:problem=kreska pseudotaktowa	!	!	!	!	!	!	!
!	!	!LO:LB:g=original	!	!	!	!	!
1D	-xus	1.d	e-	2B-\	-am	.	.
!	!	!	!	!	!	!LO:TX:t=P:problem=kreska pseudotaktowa	!
.	.	.	.	2A/	pro	2f\	-ti-
=77	=77	=77	=77	=77	=77	=77	=77
1.G	e-	.	.	1B-	no-	2e-X\	-am
!	!	!LO:TX:t=P:problem=kreska pseudotaktowa	!	!	!	!	!
.	.	2c\	-ti-	.	.	2e-\	pro
!	!	!	!	!LO:TX:t=P:problem=kreska pseudotaktowa	!	!	!
.	.	2B-\	-am	1G	-bis	2d\	no-
!	!	!	!	!	!	!LO:TX:t=P:problem=kreska pseudotaktowa	!
2F\	-ti-	2A,/	pro	.	.	2d\	-bis
=78	=78	=78	=78	=78	=78	=78	=78
2E-X\	-am	1.G	no-	1r	.	2g\	e-
2D/	pro	.	.	.	.	2f\	-ti-
!LO:TX:t=P:problem=kreska pseudotaktowa	!	!	!	!	!	!	!
1C	no-	.	.	1.c	e-	2e-X\	-am
!	!	!LO:TX:t=P:problem=kreska pseudotaktowa	!	!	!	!LO:TX:t=P:problem=kreska pseudotaktowa	!
.	.	2A/	.	.	.	2e-\	pro
=79	=79	=79	=79	=79	=79	=79	=79
0D	.	2F#X/	.	.	.	0d	no-
*	*	*	*	*custos:A	*	*	*
!	!	!	!	!LO:TX:t=P:problem=kreska pseudotaktowa	!	!	!
.	.	1G	.	2B-\	-ti-	.	.
!	!	!	!	!LO:LB:g=original	!	!	!
.	.	.	.	4A/	-am	.	.
.	.	.	.	4G/	pro	.	.
!	!	!LO:TX:t=P:problem=kreska pseudotaktowa	!	!LO:TX:t=P:problem=kreska pseudotaktowa	!	!	!
.	.	2F#X/	.	2A/	no-	.	.
=80	=80	=80	=80	=80	=80	=80	=80
!	!	!	!	!	!	!LO:TX:t=P:problem=kreska pseudotaktowa	!
2GG/	-bis	1G	-bis	2G/	-bis	1d	-bis
!LO:TX:t=P:problem=kreska pseudotaktowa	!	!	!	!	!	!	!
2G\	ſub	.	.	2B-\	ſub	.	.
2.G\	pon-	2r	.	2.B-\	Pon-	1r	.
.	.	2d\	ſub	.	.	.	.
!	!	!	!	!LO:TX:t=P:problem=kreska pseudotaktowa	!	!	!
4G\	-ti-	.	.	4B-\	-ti-	.	.
=81	=81	=81	=81	=81	=81	=81	=81
*custos:D	*	*	*	*	*	*	*
2F\	-o	2.d\	pon-	2A/	-o	1r	.
!LO:TX:t=P:problem=kreska pseudotaktowa	!	!	!	!LO:TX:t=P:problem=kreska pseudotaktowa	!	!	!
!LO:LB:g=original	!	!	!	!	!	!	!
2D/	Pi-	.	.	2F/	Pi-	.	.
.	.	4d\	-ti-	.	.	.	.
*	*	*	*	*	*	*lig	*
!	!	!	!	!	!	!LO:N:vis=0	!
2.F\	-la-	4c\	-o	2.A/	-la-	1c	paſ-
.	.	4A/	Pi-	.	.	.	.
.	.	1c	-la-	.	.	.	.
4E\	.	.	.	4G/	.	.	.
=82	=82	=82	=82	=82	=82	=82	=82
!	!	!	!	!LO:TX:t=P:problem=kreska pseudotaktowa	!	!	!
!	!	!	!	!	!	!LO:N:vis=0	!
1D	.	.	.	1F	.	1d	.
.	.	2Bn\	.	.	.	.	.
!	!	!LO:TX:t=P:problem=kreska pseudotaktowa	!	!	!	!	!
*	*	*	*	*	*	*Xlig	*
!LO:TX:t=P:problem=kreska pseudotaktowa	!	!	!	!	!	!	!
1C	-to	2.c\	.	2G/	-to	1e	-sus
.	.	.	.	1C	paſ-	.	.
.	.	4B\	.	.	.	.	.
=83	=83	=83	=83	=83	=83	=83	=83
*lig	*	*	*	*	*	*	*
!LO:N:vis=0	!	!LO:TX:t=P:problem=kreska pseudotaktowa	!	!	!	!	!
1FF	paſ-	1A	-to	.	.	2.f\	et
.	.	.	.	1D	-ſus	.	.
*	*	*	*	*	*	*custos:d	*
!	!	!	!	!	!	!LO:TX:t=P:problem=kreska pseudotaktowa	!
.	.	.	.	.	.	4e\	ſe-
!LO:N:vis=0	!	!	!	!	!	!LO:LB:g=original	!
1GG	.	1r	.	.	.	2d\	-pul-
.	.	.	.	1E	et	2G/	-tus
*Xlig	*	*	*	*	*	*	*
=84	=84	=84	=84	=84	=84	=84	=84
!LO:TX:t=P:problem=kreska pseudotaktowa	!	!	!	!	!	!LO:TX:t=P:problem=kreska pseudotaktowa	!
1AA	-ſus	1r	.	.	.	1c	paſ-
!	!	!	!	!LO:TX:t=P:problem=kreska pseudotaktowa	!	!	!
.	.	.	.	2.F/	se-	.	.
*	*	*lig	*	*	*	*	*
!	!	!LO:N:vis=0	!	!	!	!	!
1BB-	et	1F	paſ-	.	.	2d\	-sus
.	.	.	.	4E/	.	.	.
!	!	!	!	!LO:TX:t=P:problem=kreska pseudotaktowa	!	!	!
.	.	.	.	2D/	.	1d	et
=85	=85	=85	=85	=85	=85	=85	=85
!	!	!LO:TX:t=P:problem=kreska pseudotaktowa	!	!	!	!	!
!	!	!LO:N:vis=0	!	!	!	!	!
1GG	ſe-	1G	.	2d\	.	.	.
.	.	.	.	4c\	.	2e\	ſe-
.	.	.	.	4B-\	.	.	.
!	!	!	!	!	!	!LO:TX:t=P:problem=kreska pseudotaktowa	!
*	*	*Xlig	*	*	*	*	*
*	*	*custos:F	*	*	*	*	*
!LO:TX:t=P:problem=kreska pseudotaktowa	!	!	!	!	!	!	!
1FF	.	2A/	-ſus	1c	.	2.f\	-pul-
!	!	!LO:LB:g=original	!	!	!	!	!
.	.	2.F/	et	.	.	.	.
.	.	.	.	.	.	4e\	.
=86	=86	=86	=86	=86	=86	=86	=86
2.BB-/	-pul-	.	.	2B-\	-pul-	2.d\	.
.	.	4D/	ſe-	.	.	.	.
!	!	!	!	!LO:TX:t=P:problem=kreska pseudotaktowa	!	!	!
.	.	1F	-pul-	2F/	.	.	.
!	!	!	!	!	!	!LO:TX:t=P:problem=kreska pseudotaktowa	!
4AA/	.	.	.	.	.	4c/	.
1.GG	.	.	.	1.G	.	1.B-	.
.	.	4E/	.	.	.	.	.
!	!	!LO:TX:t=P:problem=kreska pseudotaktowa	!	!	!	!	!
.	.	4D/	.	.	.	.	.
=87	=87	=87	=87	=87	=87	=87	=87
.	.	2E/	.	.	.	.	.
!LO:TX:t=P:problem=kreska pseudotaktowa	!	!	!	!LO:TX:t=P:problem=kreska pseudotaktowa	!	!	!
2GG/	-tus	2E/	-tus	2G/	-tus	2B-/	-tus
!	!	!LO:TX:t=P:problem=kreska pseudotaktowa	!	!	!	!LO:TX:t=P:problem=kreska pseudotaktowa	!
1FF	est	1F	eſt	1C	eſt	1A	eſt
=88	=88	=88	=88	=88	=88	=88	=88
*	*	*	*	*custos:F	*	*	*
!	!	!	!	!LO:TX:t=P:problem=kreska pseudotaktowa	!	!	!
2F\	Et	1r	.	1r	.	2r	.
!	!	!	!	!LO:LB:g=original	!	!LO:TX:t=P:problem=kreska pseudotaktowa	!
4G\	re-	.	.	.	.	2B-/	et
!LO:TX:t=P:problem=kreska pseudotaktowa	!	!	!	!	!	!	!
4A\	-ſur-	.	.	.	.	.	.
2B-\	-re-	2B-\	Et	2r	.	4d\	re-
.	.	.	.	.	.	4e\	-ſu-
!LO:TX:t=P:problem=kreska pseudotaktowa	!	!	!	!LO:TX:t=P:problem=kreska pseudotaktowa	!	!LO:TX:t=P:problem=kreska pseudotaktowa	!
2BB-/	-xit	4d\	re-	2F/	Et	2f\	-re-
!	!	!LO:TX:t=P:problem=kreska pseudotaktowa	!	!	!	!	!
.	.	4e\	-ſur-	.	.	.	.
=89	=89	=89	=89	=89	=89	=89	=89
2F\	et	2f\	-re-	4A/	re-	2c/	-xit
.	.	.	.	4B-\	-ſur-	.	.
!	!	!LO:TX:t=P:problem=kreska pseudotaktowa	!	!	!	!	!
4A\	re-	2e\	-xit	2c\	-re-	2c/	et
4B-\	-ſur-	.	.	.	.	.	.
2c\	-re-	2c\	et	2A/	-xit	4e\	re-
.	.	.	.	.	.	4f\	-ſur-
!LO:TX:t=P:problem=kreska pseudotaktowa	!	!	!	!	!	!LO:TX:t=P:problem=kreska pseudotaktowa	!
2G\	-xit	4B-\	re-	4r	.	2g\	-re-
!	!	!LO:TX:t=P:problem=kreska pseudotaktowa	!	!LO:TX:t=P:problem=kreska pseudotaktowa	!	!	!
.	.	4c\	-ſur-	4G/	et	.	.
=90	=90	=90	=90	=90	=90	=90	=90
2GG/	/et	2d\	-re-	4B-\	re-	2d\	-xit
.	.	.	.	4c\	-ſur-	.	.
!	!	!LO:TX:t=P:problem=kreska pseudotaktowa	!	!	!	!	!
4BB-/	re-	2B-\	-xit	2.d\	-re-	2d\	et
!LO:TX:t=P:problem=kreska pseudotaktowa	!	!	!	!	!	!	!
4C/	-sur-	.	.	.	.	.	.
1D	-re-	2A/	/et	.	.	4f\	re-
.	.	.	.	8c\L	.	4g\	-ſur-
.	.	.	.	8B-\J	.	.	.
!	!	!	!	!	!	!LO:TX:t=P:problem=kreska pseudotaktowa	!
.	.	4d\	re-	4A/	.	2a\	-re-
!	!	!LO:TX:t=P:problem=kreska pseudotaktowa	!	!LO:TX:t=P:problem=kreska pseudotaktowa	!	!	!
.	.	4c\	-sur-	4F/	.	.	.
=91	=91	=91	=91	=91	=91	=91	=91
*custos:G	*	*	*	*	*	*	*
2GG/	-xit/	4B-\	-re-	2G/	-xit	2g\	-xit
.	.	4B-\	-xit/	.	.	.	.
!LO:LB:g=original	!	!	!	!	!	!	!
2.G\	ter-	2.d\	ter-	2.B-\	ter-	2.g\	ter-
4G\	-ti-	4d\	-ti-	4B-\	-ti-	4g\	-ti-
!LO:TX:t=P:problem=kreska pseudotaktowa	!	!LO:TX:t=P:problem=kreska pseudotaktowa	!	!LO:TX:t=P:problem=kreska pseudotaktowa	!	!LO:TX:t=P:problem=kreska pseudotaktowa	!
2E-X\	-a	2e-X\	-a	2B-\	-a	2g\	-a
=92	=92	=92	=92	=92	=92	=92	=92
1F	di-	1c	di-	4A/	di-	1f	di-
.	.	.	.	2B-\	.	.	.
!	!	!	!	!LO:TX:t=P:problem=kreska pseudotaktowa	!	!	!
.	.	.	.	4A/	.	.	.
*	*	*custos:f	*	*	*	*custos:d	*
2BB-/	-e	2d\	-e	2B-\	-e	2f\	-e
!	!	!	!	!	!	!LO:LB:g=original	!
!LO:TX:t=P:problem=kreska pseudotaktowa	!	!LO:TX:t=P:problem=kreska pseudotaktowa	!	!	!	!LO:TX:t=P:problem=kreska pseudotaktowa	!
!	!	!LO:LB:g=original	!	!	!	!	!
2BB-/	ſe-	2f\	ſe-	2d\	ſe-	2d\	ſe-
=93	=93	=93	=93	=93	=93	=93	=93
1FF	-cun-	1f	-cun-	1c	-cun-	1a	-cun-
2C/	-du(m)	2e\	-dum	2c\	-dum	2g\	-dum
!LO:TX:t=P:problem=kreska pseudotaktowa	!	!	!	!LO:TX:t=P:problem=kreska pseudotaktowa	!	!LO:TX:t=P:problem=kreska pseudotaktowa	!
2D/	ſcri-	1d	ſcri-	2A/	ſcri-	2f\	ſcri-
=94	=94	=94	=94	=94	=94	=94	=94
1AA	-ptu-	.	.	1A	-ptu-	1e	-ptu-
.	.	2c#X\	-ptu-	.	.	.	.
!	!	!LO:TX:t=P:problem=kreska pseudotaktowa	!	!	!	!LO:TX:t=P:problem=kreska pseudotaktowa	!
2D/	-ras	1d	-ras	2A/	-ras	1f	-ras
4D/	et	.	.	4F/	Et	.	.
!LO:TX:t=P:problem=kreska pseudotaktowa	!	!	!	!LO:TX:t=P:problem=kreska pseudotaktowa	!	!	!
4D/	a-	.	.	4F/	aſ-	.	.
=95	=95	=95	=95	=95	=95	=95	=95
2E-X\	-ſcen-	0r	.	2G/	-cen-	0r	.
4E-\	-dit	.	.	4G/	-dit	.	.
!LO:TX:t=P:problem=kreska pseudotaktowa	!	!	!	!	!	!	!
4F\	in	.	.	4A/	in	.	.
4G\	coe-	.	.	4B-\	coe-	.	.
4A\	.	.	.	4c\	.	.	.
2B-\	.	.	.	2d\	.	.	.
=96	=96	=96	=96	=96	=96	=96	=96
*	*	*	*	*custos:A	*	*	*
!	!	!	!	!LO:TX:t=P:problem=kreska pseudotaktowa	!	!	!
1F	-lum	2.F/	et	1c	-lu(m)	2.c/	et
!	!	!LO:TX:t=P:problem=kreska pseudotaktowa	!	!	!	!LO:TX:t=P:problem=kreska pseudotaktowa	!
.	.	4F/	a-	.	.	4c/	aſ-
!	!	!	!	!LO:LB:g=original	!	!	!
!LO:TX:t=P:problem=kreska pseudotaktowa	!	!	!	!	!	!	!
1r	.	2B-\	-ſcen-	1r	.	2d\	-cen-
.	.	4B-\	-dit	.	.	4d\	-dit
!	!	!LO:TX:t=P:problem=kreska pseudotaktowa	!	!	!	!LO:TX:t=P:problem=kreska pseudotaktowa	!
.	.	4c\	in	.	.	4e\	in
=97	=97	=97	=97	=97	=97	=97	=97
2.FF/	et	4d\	coe-	2.A/	et	4f\	coe-
.	.	4e\	.	.	.	4g\	.
.	.	2f\	.	.	.	2a\	.
!LO:TX:t=P:problem=kreska pseudotaktowa	!	!	!	!LO:TX:t=P:problem=kreska pseudotaktowa	!	!	!
4FF/	a-	.	.	4A/	aſ-	.	.
!	!	!LO:TX:t=P:problem=kreska pseudotaktowa	!	!	!	!LO:TX:t=P:problem=kreska pseudotaktowa	!
2GG/	-ſcen-	1d	-lum	2B-\	-cen-	1g	-lum
4GG/	-dit	.	.	4B-\	-dit	.	.
!LO:TX:t=P:problem=kreska pseudotaktowa	!	!	!	!	!	!	!
4AA/	in	.	.	4c\	in	.	.
=98	=98	=98	=98	=98	=98	=98	=98
4BB-/	coe-	2.F/	et	4d\	coe-	2.d\	et
4C/	.	.	.	4e\	.	.	.
2D/	.	.	.	4f\	.	.	.
!	!	!LO:TX:t=P:problem=kreska pseudotaktowa	!	!LO:TX:t=P:problem=kreska pseudotaktowa	!	!	!
.	.	4F/	a-	4d\	.	4d\	aſ-
1C	.	2G/	-ſcen-	2.c\	.	2e-X\	-cen-
.	.	4G/	-dit	.	.	4e-\	-dit
!	!	!LO:TX:t=P:problem=kreska pseudotaktowa	!	!	!	!LO:TX:t=P:problem=kreska pseudotaktowa	!
.	.	4A/	in	4c\	-lum	4f\	in
=99	=99	=99	=99	=99	=99	=99	=99
!LO:TX:t=P:problem=kreska pseudotaktowa	!	!	!	!	!	!	!
1BB-	.	4B-\	coe-	2d\	in	4g\	coe-
.	.	4c\	.	.	.	4a\	.
.	.	2d\	.	4d\	coe-	1b-	.
!	!	!	!	!LO:TX:t=P:problem=kreska pseudotaktowa	!	!	!
.	.	.	.	4e\	.	.	.
!	!	!LO:TX:t=P:problem=kreska pseudotaktowa	!	!	!	!	!
1FF	.	1c	.	1f	.	.	.
.	.	.	.	.	.	2a\	.
=100	=100	=100	=100	=100	=100	=100	=100
!	!	!	!	!	!	!LO:TX:t=P:problem=kreska pseudotaktowa	!
1.BB-	-lu(m)	1.d	-lum	1f	-lum	1b-	-lum
.	.	.	.	2r	.	1f	ſe-
*custos:F	*	*	*	*	*	*	*
!LO:TX:t=P:problem=kreska pseudotaktowa	!	!LO:TX:t=P:problem=kreska pseudotaktowa	!	!LO:TX:t=P:problem=kreska pseudotaktowa	!	!	!
2BB-/	ſe-	2d\	ſe-	2B-\	ſe-	.	.
!LO:LB:g=original	!	!	!	!	!	!	!
=101	=101	=101	=101	=101	=101	=101	=101
!	!	!	!	!	!	!LO:TX:t=P:problem=kreska pseudotaktowa	!
1F	-det	1c	-det	1A	-det	1f	-det
*	*	*custos:A	*	*	*	*	*
2C/	ad	2c\	ad	2G/	ad	2e\	ad
!	!	!LO:TX:t=P:problem=kreska pseudotaktowa	!	!	!	!	!
!	!	!LO:LB:g=original	!	!	!	!	!
2.D/	dex-	2.A\	dex-	2.d\	dex-	2.f\	dex-
=102	=102	=102	=102	=102	=102	=102	=102
.	.	.	.	.	.	.	.
4D/	-te-	4A\	-te-	4d\	-te-	4f\	-te-
!LO:TX:t=P:problem=kreska pseudotaktowa	!	!	!	!LO:TX:t=P:problem=kreska pseudotaktowa	!	!	!
2AA/	-ram	1A	-ram	2c\	-ram	2e\	-ram
2.BB-/	Pa-	.	.	1B-	Pa-	0.d	Pa-
.	.	1G	Pa-	.	.	.	.
4C/	.	.	.	.	.	.	.
=103	=103	=103	=103	=103	=103	=103	=103
!	!	!	!	!LO:TX:t=P:problem=kreska pseudotaktowa	!	!	!
0D	.	.	.	0A	.	.	.
.	.	4F#X/	.	.	.	.	.
!	!	!LO:TX:t=P:problem=kreska pseudotaktowa	!	!	!	!	!
.	.	4E/	.	.	.	.	.
.	.	1F#X	.	.	.	.	.
=104	=104	=104	=104	=104	=104	=104	=104
0GG;	-tris	0G;	-tris.	0Bn;>	-tris	0d;>	-tris
!	!	!	!	!LO:LB:g=original	!	!	!
=105||	=105||	=105||	=105||	=105||	=105||	=105||	=105||
*M3/1	*	*M3/1	*	*M3/1	*	*M3/1	*
*met(0)	*	*met(0)	*	*met(0)	*	*met(0)	*
!LO:TX:t=P:problem=kreska pseudotaktowa	!	!LO:TX:t=P:problem=kreska pseudotaktowa	!	!	!	!LO:TX:t=P:problem=kreska pseudotaktowa	!
0.D	Et	0.d	Et	0.A	Et	0.f#X	Et
=106	=106	=106	=106	=106	=106	=106	=106
1.GG	i-	1.d	i-	1.Bn	i-	1.g	i-
2GG/	-te-	2d\	-te-	2Bn\	-te-	2g\	-te-
!LO:TX:t=P:problem=kreska pseudotaktowa	!	!LO:TX:t=P:problem=kreska pseudotaktowa	!	!LO:TX:t=P:problem=kreska pseudotaktowa	!	!LO:TX:t=P:problem=kreska pseudotaktowa	!
1GG	-rum	1d	-rum	1Bn	-rum	1g	-rum
=107	=107	=107	=107	=107	=107	=107	=107
1C	ven-	1G	ven-	1c	ven-	1e	ven-
1F	-tu-	1A	-tu-	1c	-tu-	1f	-tu-
!LO:TX:t=P:problem=kreska pseudotaktowa	!	!LO:TX:t=P:problem=kreska pseudotaktowa	!	!	!	!LO:TX:t=P:problem=kreska pseudotaktowa	!
1D	-r(us)	1F	-rus	1Bn	-rus	1f	-rus
=108	=108	=108	=108	=108	=108	=108	=108
0C	eſt	0G	eſt	0c	eſt	0e	eſt
!LO:TX:t=P:problem=kreska pseudotaktowa	!	!LO:TX:t=P:problem=kreska pseudotaktowa	!	!LO:TX:t=P:problem=kreska pseudotaktowa	!	!	!
1C	cum	1c	cum	1G	cum	1e	cum
=109	=109	=109	=109	=109	=109	=109	=109
1.F	glo-	1.c	glo-	1.A	cum	1.f	glo-
2F\	-ri-	2c\	-ri-	2A/	glo-	2f\	-ri-
!LO:TX:t=P:problem=kreska pseudotaktowa	!	!LO:TX:t=P:problem=kreska pseudotaktowa	!	!LO:TX:t=P:problem=kreska pseudotaktowa	!	!LO:TX:t=P:problem=kreska pseudotaktowa	!
1C	-a	1c	-a	1G	-ria	1e	-a
=110	=110	=110	=110	=110	=110	=110	=110
*	*	*custos:G	*	*	*	*	*
0D	iu-	0A	iu-	0F	iu-	0d	iu-
!LO:TX:t=P:problem=kreska pseudotaktowa	!	!LO:TX:t=P:problem=kreska pseudotaktowa	!	!	!	!	!
!	!	!LO:LB:g=original	!	!	!	!	!
1BB-	-di-	1G	-di-	1D	-di-	1d	-di-
=111	=111	=111	=111	=111	=111	=111	=111
!	!	!	!	!LO:TX:t=P:problem=kreska pseudotaktowa	!	!	!
0.AA	-ca-	0.A	-ca-	0.E	-ca-	0d	-ca-
!	!	!	!	!	!	!LO:TX:t=P:problem=kreska pseudotaktowa	!
.	.	.	.	.	.	1c#X	-re
=112	=112	=112	=112	=112	=112	=112	=112
0D	-re	0A	-re	0F	-re	0d	vi-
*custos:G	*	*	*	*	*	*	*
!	!	!LO:TX:t=P:problem=kreska pseudotaktowa	!	!LO:TX:t=P:problem=kreska pseudotaktowa	!	!	!
1D	vi-	1d	vi-	1A	vi-	1f	-vos
!LO:LB:g=original	!	!	!	!	!	!	!
=113	=113	=113	=113	=113	=113	=113	=113
*	*	*col	*	*	*	*	*
0G	-vos	1d	-vos	0B-	-vos	0g	et
.	.	1G	et	.	.	.	.
!LO:TX:t=P:problem=kreska pseudotaktowa	!	!	!	!LO:TX:t=P:problem=kreska pseudotaktowa	!	!LO:TX:t=P:problem=kreska pseudotaktowa	!
1E-X	et	0B-	mor-	1B-	et	1g	mor-
=114	=114	=114	=114	=114	=114	=114	=114
0C	mor-	.	.	0c	mor-	0e-X	-tu-
.	.	1A	-tu-	.	.	.	.
!LO:TX:t=P:problem=kreska pseudotaktowa	!	!LO:TX:t=P:problem=kreska pseudotaktowa	!	!LO:TX:t=P:problem=kreska pseudotaktowa	!	!LO:TX:t=P:problem=kreska pseudotaktowa	!
1C	-tu-	1A	-os	1c	-tu-	1e-	-os
*	*	*Xcol	*	*	*	*	*
=115	=115	=115	=115	=115	=115	=115	=115
*	*	*	*	*custos:B	*	*custos:f	*
1BB-	-os	1B-,	.	1F	-os	1d	.
!	!	!	!	!LO:LB:g=original	!	!	!
1BB-	cu-	1d	cu-	1B-	cu-	1f	cu-
!LO:TX:t=P:problem=kreska pseudotaktowa	!	!LO:TX:t=P:problem=kreska pseudotaktowa	!	!LO:TX:t=P:problem=kreska pseudotaktowa	!	!LO:TX:t=P:problem=kreska pseudotaktowa	!
!	!	!	!	!	!	!	!LO:LB:g=original
1BB-	-ius	1d	-ius	1B-	-ius	1f	-ius
=116	=116	=116	=116	=116	=116	=116	=116
1F	re-	1c	re-	1A	re-	1f	re-
1F	-gni	1c	-gni	1A	-gni	1f	-gni
!LO:TX:t=P:problem=kreska pseudotaktowa	!	!	!	!LO:TX:t=P:problem=kreska pseudotaktowa	!	!	!
1BB-	non	1d	non	1B-	no	1f	non
=117	=117	=117	=117	=117	=117	=117	=117
0FF	e-	0f	e-	0c	e-	0a	e-
!LO:TX:t=P:problem=kreska pseudotaktowa	!	!LO:TX:t=P:problem=kreska pseudotaktowa	!	!	!	!LO:TX:t=P:problem=kreska pseudotaktowa	!
1GG	-rit	1d	-rit	1B-	-rit	1a	.
=118	=118	=118	=118	=118	=118	=118	=118
!	!	!LO:TX:t=P:problem=kreska pseudotaktowa	!	!	!	!	!
2AA/	fi-	0.c	fi-	0A	fi-	0f	-rit
2GG/	.	.	.	.	.	.	.
2AA/	.	.	.	.	.	.	.
2BB-/	.	.	.	.	.	.	.
1C	.	.	.	1G	.	1e	fi-
=119	=119	=119	=119	=119	=119	=119	=119
0FF	-nis	0c	-nis	0A	-nis	0f	-nis
!LO:TX:t=P:problem=kreska pseudotaktowa	!	!LO:TX:t=P:problem=kreska pseudotaktowa	!	!LO:TX:t=P:problem=kreska pseudotaktowa	!	!LO:TX:t=P:problem=kreska pseudotaktowa	!
1r	.	1r	.	1r	.	1r	.
=120	=120	=120	=120	=120	=120	=120	=120
0C	Et	0c	Et	0G	Et	0e	Et
!	!	!LO:TX:t=P:problem=kreska pseudotaktowa	!	!	!	!	!
1C	in	1c	in	1G	in	1e	in
=121	=121	=121	=121	=121	=121	=121	=121
1.C	ſpi-	1.c	Spi-	1.G	Spi-	1.e	Spi-
2C/	-ri-	2c\	-ri-	2G/	-ri-	2e\	-ri-
!LO:TX:t=P:problem=kreska pseudotaktowa	!	!LO:TX:t=P:problem=kreska pseudotaktowa	!	!LO:TX:t=P:problem=kreska pseudotaktowa	!	!LO:TX:t=P:problem=kreska pseudotaktowa	!
1D	-tum	1A	-tum	1F	-tum	1d	-tum
=122	=122	=122	=122	=122	=122	=122	=122
0C	San-	0c	San-	0G	San-	0e	Sa(n)-
*	*	*custos:B	*	*	*	*	*
1AA	-ctum	1c	-ctum	1A	-ctu(m)	1f	-ctu(m)
!	!	!LO:LB:g=original	!	!	!	!	!
=123	=123	=123	=123	=123	=123	=123	=123
0BB-	Do-	0B-	Do-	0F	Do-	0d	Do-
!LO:TX:t=P:problem=kreska pseudotaktowa	!	!	!	!LO:TX:t=P:problem=kreska pseudotaktowa	!	!LO:TX:t=P:problem=kreska pseudotaktowa	!
1GG	-mi-	1B-	-mi-	1G	-mi-	1e	-mi-
=124	=124	=124	=124	=124	=124	=124	=124
*custos:F	*	*	*	*	*	*	*
0FF	-num	0c	-num	0A	-num	0f	-num
!LO:TX:t=P:problem=kreska pseudotaktowa	!	!LO:TX:t=P:problem=kreska pseudotaktowa	!	!LO:TX:t=P:problem=kreska pseudotaktowa	!	!	!
!LO:LB:g=original	!	!	!	!	!	!	!
1F	et	1c	et	1A	et	1f	et
=125	=125	=125	=125	=125	=125	=125	=125
0D	vi-	0d	vi-	0A	vi-	0f	vi-
!LO:TX:t=P:problem=kreska pseudotaktowa	!	!	!	!	!	!	!
1BB-	-vi-	1d	-vi-	1B-	-vi-	1d	-vi-
=126	=126	=126	=126	=126	=126	=126	=126
*col	*	*	*	*col	*	*col	*
1C	-fi-	1c	-fi-	1G	-fi-	1e	-fi-
!	!	!	!	!LO:TX:t=P:problem=kreska pseudotaktowa	!	!LO:TX:t=P:problem=kreska pseudotaktowa	!
0D	-can-	1c	-can-	0F	-can-	0f	-ca(n)-
.	.	1Bn	-tem	.	.	.	.
!	!	!LO:TX:t=P:problem=kreska pseudotaktowa	!	!	!	!	!
*Xcol	*	*	*	*Xcol	*	*Xcol	*
=127	=127	=127	=127	=127	=127	=127	=127
*	*	*	*	*custos:c	*	*	*
1C,	-tem	1c,	.	1G	-tem	1e,	-tem
!	!	!	!	!LO:LB:g=original	!	!	!
1C	qui	1G	qui	1c	qui	1e	qui
*	*	*	*	*	*	*custos:f	*
!LO:TX:t=P:problem=kreska pseudotaktowa	!	!LO:TX:t=P:problem=kreska pseudotaktowa	!	!LO:TX:t=P:problem=kreska pseudotaktowa	!	!	!
1C	ex	1G	ex	1c	ex	1e	ex
!	!	!	!	!	!	!LO:LB:g=original	!
=128	=128	=128	=128	=128	=128	=128	=128
0F	Pa-	0A	Pa-	0c	Pa-	0f	pa-
!LO:TX:t=P:problem=kreska pseudotaktowa	!	!LO:TX:t=P:problem=kreska pseudotaktowa	!	!LO:TX:t=P:problem=kreska pseudotaktowa	!	!LO:TX:t=P:problem=kreska pseudotaktowa	!
1E	-tre	1G	-tre	1c	-tre	1g	-tre
=129	=129	=129	=129	=129	=129	=129	=129
1.F	fi-	1.A	fi-	1.c	fi-	1.f	fi-
2F\	-li-	2A/	-li-	2c\	-li-	2f\	-li-
!LO:TX:t=P:problem=kreska pseudotaktowa	!	!LO:TX:t=P:problem=kreska pseudotaktowa	!	!LO:TX:t=P:problem=kreska pseudotaktowa	!	!LO:TX:t=P:problem=kreska pseudotaktowa	!
1C	-o-	1G	-o-	1c	-o-	1e	-o-
=130	=130	=130	=130	=130	=130	=130	=130
*	*	*	*	*	*	*col	*
0D	-q(ue)	0F	-q(ue)	0A	-q(ue)	1d	-q(ue)
.	.	.	.	.	.	1d	pro-
1D	pro-	1F	pro-	1A	pro-	0f	-ce-
=131	=131	=131	=131	=131	=131	=131	=131
!LO:TX:t=P:problem=kreska pseudotaktowa	!	!LO:TX:t=P:problem=kreska pseudotaktowa	!	!LO:TX:t=P:problem=kreska pseudotaktowa	!	!	!
0.G	-ce-	0.G	-ce-	0.B-	-ce-	.	.
.	.	.	.	.	.	0e	-dit
*	*	*	*	*	*	*Xcol	*
=132	=132	=132	=132	=132	=132	=132	=132
1F,	-dit	1A,	-dit	1c,	-dit	1f,	.
1F	qui	1c	qui	1f	qui	1a	qui
!LO:TX:t=P:problem=kreska pseudotaktowa	!	!LO:TX:t=P:problem=kreska pseudotaktowa	!	!LO:TX:t=P:problem=kreska pseudotaktowa	!	!LO:TX:t=P:problem=kreska pseudotaktowa	!
1C	cum	1c	cum	1e	cum	1g	cum
=133	=133	=133	=133	=133	=133	=133	=133
1D	Pa-	1A	Pa-	1d	Pa-	1f	Pa-
*	*	*custos:B	*	*	*	*	*
1D	-tre	1A	-tre	1d	-tre	1f	-tre
!	!	!LO:LB:g=original	!	!	!	!	!
!LO:TX:t=P:problem=kreska pseudotaktowa	!	!	!	!	!	!	!
1GG	et	1B-	et	1d	et	1g	et
=134	=134	=134	=134	=134	=134	=134	=134
0AA	fi-	0A	fi-	0d	fi-	0e	fi-
!	!	!	!	!LO:TX:t=P:problem=kreska pseudotaktowa	!	!LO:TX:t=P:problem=kreska pseudotaktowa	!
1AA	-li-	1A	-li-	1c#X	-li-	1e	-li-
=135	=135	=135	=135	=135	=135	=135	=135
0D	-o	0A	-o	0d	-o	0f	-o
!LO:TX:t=P:problem=kreska pseudotaktowa	!	!LO:TX:t=P:problem=kreska pseudotaktowa	!	!	!	!LO:TX:t=P:problem=kreska pseudotaktowa	!
1r	.	1r	.	1r	.	1r	.
=136	=136	=136	=136	=136	=136	=136	=136
0BB-	ſi-	0F	ſi-	0B-	ſi-	0d	ſi-
*custos:C	*	*	*	*	*	*	*
!	!	!	!	!LO:TX:t=P:problem=kreska pseudotaktowa	!	!	!
1BB-	-mul	1F	-mul	1B-	-mul	1d	-mul
!LO:LB:g=original	!	!	!	!	!	!	!
=137	=137	=137	=137	=137	=137	=137	=137
*	*	*	*	*	*	*col	*
0C	a-	0E	a-	0G	a-	0c	a-
!LO:TX:t=P:problem=kreska pseudotaktowa	!	!LO:TX:t=P:problem=kreska pseudotaktowa	!	!	!	!	!
1AA	-do-	1C	-do-	1F#X	-do-	0c	-do-
=138	=138	=138	=138	=138	=138	=138	=138
0.GG	-ra-	0.D	-ra-	0.G	-ra-	.	.
.	.	.	.	.	.	0Bn	-ra-
*	*	*	*	*	*	*Xcol	*
=139	=139	=139	=139	=139	=139	=139	=139
0C	-tur	0E	-tur	0G	-tur	0c	-tur
*	*	*	*	*custos:c	*	*	*
!LO:TX:t=P:problem=kreska pseudotaktowa	!	!LO:TX:t=P:problem=kreska pseudotaktowa	!	!LO:TX:t=P:problem=kreska pseudotaktowa	!	!LO:TX:t=P:problem=kreska pseudotaktowa	!
!	!	!	!	!LO:LB:g=original	!	!	!
1r	.	1r	.	1r	.	1r	.
=140	=140	=140	=140	=140	=140	=140	=140
1F	et	1A	et	1c	et	1f	et
1F	co(n)-	1c	con-	1f	con-	1a	con-
*	*	*	*	*	*	*custos:f	*
!LO:TX:t=P:problem=kreska pseudotaktowa	!	!LO:TX:t=P:problem=kreska pseudotaktowa	!	!LO:TX:t=P:problem=kreska pseudotaktowa	!	!LO:TX:t=P:problem=kreska pseudotaktowa	!
1G	-glo-	1B-	-glo-	1d	-glo-	1g	-glo-
!	!	!	!	!	!	!LO:LB:g=original	!
=141	=141	=141	=141	=141	=141	=141	=141
1.A	-ri-	1.A	-ri-	1.c	-ri-	1.f	-ri-
2F\	-fi-	2A/	-fi-	2c\	-fi-	2f\	-fi-
!LO:TX:t=P:problem=kreska pseudotaktowa	!	!LO:TX:t=P:problem=kreska pseudotaktowa	!	!LO:TX:t=P:problem=kreska pseudotaktowa	!	!LO:TX:t=P:problem=kreska pseudotaktowa	!
1C	-ca-	1G	-ca-	1c	-ca-	1e	-ca-
=142	=142	=142	=142	=142	=142	=142	=142
1F	-tur	1A,	-tur	1c,	-tur	1f	-tur
1F	qui	1A	qui	1c	qui	1a	qui
!LO:TX:t=P:problem=kreska pseudotaktowa	!	!LO:TX:t=P:problem=kreska pseudotaktowa	!	!LO:TX:t=P:problem=kreska pseudotaktowa	!	!LO:TX:t=P:problem=kreska pseudotaktowa	!
1E	lo-	1c	lo-	1G	lo-	1g	lo-
=143	=143	=143	=143	=143	=143	=143	=143
1.D	-cu-	1.d	-cu-	1.A	-cu-	1.f	-cu-
2D/	-tus	2d\	-tus	2A/	-tus	2f\	-tus
!LO:TX:t=P:problem=kreska pseudotaktowa	!	!LO:TX:t=P:problem=kreska pseudotaktowa	!	!LO:TX:t=P:problem=kreska pseudotaktowa	!	!LO:TX:t=P:problem=kreska pseudotaktowa	!
1C	est	1A	est	1c,	est	1e	eſt
=144	=144	=144	=144	=144	=144	=144	=144
*	*	*custos:F	*	*	*	*	*
*	*	*	*	*col	*	*	*
0BB-	per	0B-	per	0F	per	0d	per
!	!	!LO:LB:g=original	!	!	!	!	!
1AA	Pro-	1F	Pro-	0F	Pro-	1c	Pro-
=145	=145	=145	=145	=145	=145	=145	=145
0.GG	-phe-	0.G	-phe-	.	.	0.B-	-phe-
.	.	.	.	0E	-phe-	.	.
*	*	*	*	*Xcol	*	*	*
=146	=146	=146	=146	=146	=146	=146	=146
0FF	-tas	0c	-tas	0F	-tas	0A	-tas,
!LO:TX:t=P:problem=kreska pseudotaktowa	!	!LO:TX:t=P:problem=kreska pseudotaktowa	!	!LO:TX:t=P:problem=kreska pseudotaktowa	!	!LO:TX:t=P:problem=kreska pseudotaktowa	!
1r	.	1r	.	1r	.	1r	.
=147	=147	=147	=147	=147	=147	=147	=147
1C	et	1c	Et	1G	et	1e	Et
1C	u-	1c	u-	1G	U-	1e	u-
!LO:TX:t=P:problem=kreska pseudotaktowa	!	!LO:TX:t=P:problem=kreska pseudotaktowa	!	!LO:TX:t=P:problem=kreska pseudotaktowa	!	!LO:TX:t=P:problem=kreska pseudotaktowa	!
1F	-nam	1c	-nam	1A	-na(m)	1f	-na(m)
=148	=148	=148	=148	=148	=148	=148	=148
1E-X	San-	1e-X	San-	1B-	Sa(n)-	1g	San-
1E-X	-ctam	1e-X	-ctam	1B-	-cta(m)	1g	-ctam
*custos:C	*	*	*	*	*	*	*
!LO:TX:t=P:problem=kreska pseudotaktowa	!	!LO:TX:t=P:problem=kreska pseudotaktowa	!	!LO:TX:t=P:problem=kreska pseudotaktowa	!	!LO:TX:t=P:problem=kreska pseudotaktowa	!
1F	Ca-	1c	Ca-	1A	Ca-	1f	Ca-
!LO:LB:g=original	!	!	!	!	!	!	!
=149	=149	=149	=149	=149	=149	=149	=149
1.C	-tho-	1.c	-tho-	1.G	-tho-	1.e	-tho-
2C/	-li-	2c\	-li-	2G/	-li-	2e\	-li-
!LO:TX:t=P:problem=kreska pseudotaktowa	!	!LO:TX:t=P:problem=kreska pseudotaktowa	!	!LO:TX:t=P:problem=kreska pseudotaktowa	!	!LO:TX:t=P:problem=kreska pseudotaktowa	!
1C	-cam	1c	-cam	1G,	-cam	1e	-cam
=150	=150	=150	=150	=150	=150	=150	=150
*	*	*	*	*custos:G	*	*	*
1F	et	1A	et	1F	et	1c	et
!	!	!	!	!LO:LB:g=original	!	!	!
1E-X	A-	1B-	A-	1G	A-	1e-X	A-
*	*	*	*	*	*	*custos:f	*
!LO:TX:t=P:problem=kreska pseudotaktowa	!	!	!	!LO:TX:t=P:problem=kreska pseudotaktowa	!	!LO:TX:t=P:problem=kreska pseudotaktowa	!
1C	-po-	1c	-po-	1A	-po-	1e-X	-po-
!	!	!	!	!	!	!LO:LB:g=original	!
=151	=151	=151	=151	=151	=151	=151	=151
1.BB-	-ſto-	1.d	-ſto-	1.B-	-sto-	1.f	-ſto-
2BB-/	-li-	2d\	-li-	2B-\	-li-	2f\	-li-
!LO:TX:t=P:problem=kreska pseudotaktowa	!	!LO:TX:t=P:problem=kreska pseudotaktowa	!	!LO:TX:t=P:problem=kreska pseudotaktowa	!	!LO:TX:t=P:problem=kreska pseudotaktowa	!
1FF	-cam	1c	-cam	1A	-cam	1f	-cam
=152	=152	=152	=152	=152	=152	=152	=152
1GG	Ec-	1B-	Ec-	1G	Ec-	1d	Ec-
1.D	-cle-	1.A	-cle-	1G	-cle-	1.d	-cle-
.	.	.	.	1F#X	-ſi-	.	.
2D/	-si-	2A/	-ſi-	.	.	2d\	-ſi-
=153	=153	=153	=153	=153	=153	=153	=153
*M2/1	*	*M2/1	*	*M2/1	*	*M2/1	*
*met(c|)	*	*met(c|)	*	*met(c|)	*	*met(c|)	*
!LO:TX:t=P:problem=kreska pseudotaktowa	!	!LO:TX:t=P:problem=kreska pseudotaktowa	!	!LO:TX:t=P:problem=kreska pseudotaktowa	!	!LO:TX:t=P:problem=kreska pseudotaktowa	!
1GG	-am	1B-	-am	1G,	-am	1d	-am
1G	Con-	1d	Con-	1Bn	Con-	2r	.
.	.	.	.	.	.	2g\	con-
=154	=154	=154	=154	=154	=154	=154	=154
*	*	*custos:e	*	*	*	*	*
2E-X\	-fi-	2e-X\	-fi-	2c\	-fi-	2.g\	-fi-
!LO:TX:t=P:problem=kreska pseudotaktowa	!	!	!	!LO:TX:t=P:problem=kreska pseudotaktowa	!	!	!
!	!	!LO:LB:g=original	!	!	!	!	!
2C/	-te-	2e-X\	-te-	2c\	-te-	.	.
!	!	!	!	!	!	!LO:TX:t=P:problem=kreska pseudotaktowa	!
.	.	.	.	.	.	4g\	-te-
2.G\	-or	2.d\	-or	2.B-\	-or	2.g\	-or
4G\	u-	4d\	u-	4B-\	u-	4g\	u-
=155	=155	=155	=155	=155	=155	=155	=155
4G\	-num	4d\	-num	4B-\	-nu(m)	4g\	-num
4B-\	bap-	4B-\	bap-	4d\	bap-	4f\	bap-
!LO:TX:t=P:problem=kreska pseudotaktowa	!	!LO:TX:t=P:problem=kreska pseudotaktowa	!	!LO:TX:t=P:problem=kreska pseudotaktowa	!	!LO:TX:t=P:problem=kreska pseudotaktowa	!
2F\	-ti-	2A/	-tiſ-	2c\	-ti-	2f\	-ti-
2BB-/	-ſma	1B-	-ma	2d\	-ſma	0f	-ſma
1B-	in	.	.	1d	in	.	.
=156	=156	=156	=156	=156	=156	=156	=156
!	!	!LO:TX:t=P:problem=kreska pseudotaktowa	!	!	!	!	!
.	.	0r	.	.	.	.	.
!LO:TX:t=P:problem=kreska pseudotaktowa	!	!	!	!LO:TX:t=P:problem=kreska pseudotaktowa	!	!	!
2B-\	re-	.	.	2d\	re-	.	.
!	!	!	!	!	!	!LO:TX:t=P:problem=kreska pseudotaktowa	!
2.A\	-miſ-	.	.	2.c\	-miſ-	1r	.
*custos:F	*	*	*	*	*	*	*
4G\	-si-	.	.	4B-\	-so-	.	.
!LO:LB:g=original	!	!	!	!	!	!	!
=157	=157	=157	=157	=157	=157	=157	=157
4F\	-o-	2r	.	4A/	-o-	2r	.
4E\	-nem	.	.	4G/	-nem	.	.
4D/	pec-	1d	in	4F/	pe-	1f	in
!	!	!	!	!LO:TX:t=P:problem=kreska pseudotaktowa	!	!	!
4C/	-ca-	.	.	4E/	-ca-	.	.
!LO:TX:t=P:problem=kreska pseudotaktowa	!	!	!	!	!	!	!
1BB-	-to-	.	.	1D	-to-	.	.
!	!	!LO:TX:t=P:problem=kreska pseudotaktowa	!	!	!	!	!
.	.	2d\	re-	.	.	2f\	re-
=158	=158	=158	=158	=158	=158	=158	=158
*	*	*	*	*custos:c	*	*	*
!	!	!	!	!LO:TX:t=P:problem=kreska pseudotaktowa	!	!	!
0C	.	2.c\	-miſ-	1G	-rum	2.e-X\	-miſ-
!	!	!	!	!	!	!LO:TX:t=P:problem=kreska pseudotaktowa	!
.	.	4B-\	-si-	.	.	4d\	-si-
!	!	!	!	!LO:LB:g=original	!	!	!
.	.	4A/	-o-	2.c\	pec-	4c/	-o-
.	.	4G/	-nem	.	.	4B-/	-nem
.	.	1c	pec-	.	.	4A/	pec-
!	!	!	!	!LO:TX:t=P:problem=kreska pseudotaktowa	!	!LO:TX:t=P:problem=kreska pseudotaktowa	!
.	.	.	.	4B-\	-ca-	4G/	-ca-
=159	=159	=159	=159	=159	=159	=159	=159
0D	.	.	.	2A\	-to-	2F/	-to-
!	!	!LO:TX:t=P:problem=kreska pseudotaktowa	!	!	!	!	!
.	.	2B-\	-ca-	4B-\	.	1G	.
.	.	.	.	4c\	.	.	.
.	.	1A	-to-	2d\	.	.	.
!	!	!	!	!LO:TX:t=P:problem=kreska pseudotaktowa	!	!	!
.	.	.	.	2d\	-rum	2F#X/	.
=160	=160	=160	=160	=160	=160	=160	=160
*	*	*	*	*	*	*custos:g	*
!	!	!	!	!	!	!LO:TX:t=P:problem=kreska pseudotaktowa	!
2GG,/	-rum	2B-,\	-rum	2.d\	et	1G	-rum
1G	et	2.B-\	et	.	.	.	.
.	.	.	.	4c\	.	.	.
!	!	!	!	!	!	!LO:LB:g=original	!
.	.	.	.	2B-\	.	2g\	et
.	.	4B-\	ex-	.	.	.	.
!LO:TX:t=P:problem=kreska pseudotaktowa	!	!	!	!LO:TX:t=P:problem=kreska pseudotaktowa	!	!	!
2F\	ex-	1d	-pe-	2A/	ex-	2a\	ex-
=161	=161	=161	=161	=161	=161	=161	=161
1E-X	-pe-	.	.	2B-\	-pe-	1g	-pe-
!	!	!LO:TX:t=P:problem=kreska pseudotaktowa	!	!	!	!	!
.	.	2c\	-cto	2G/	.	.	.
!LO:TX:t=P:problem=kreska pseudotaktowa	!	!	!	!LO:TX:t=P:problem=kreska pseudotaktowa	!	!LO:TX:t=P:problem=kreska pseudotaktowa	!
1D	-cto	2d,\	re-	1A	-cto	1f#X	-cto
.	.	2.d\	-ſur-	.	.	.	.
=162	=162	=162	=162	=162	=162	=162	=162
2.G\	re-	.	.	2.Bn\	re-	2.g\	re-
.	.	4d\	-re-	.	.	.	.
.	.	4d\	-cti-	.	.	.	.
!	!	!LO:TX:t=P:problem=kreska pseudotaktowa	!	!	!	!	!
4G\	-ſur-	4d\	-o-	4Bn\	-ſur-	4g\	-ſur-
4G\	-re-	2G/	-nem	4Bn\	-re-	4g\	-re-
4G\	-cti-	.	.	4B\	-cti-	4g\	-cti-
!	!	!LO:TX:t=P:problem=kreska pseudotaktowa	!	!	!	!	!
4C/	-o-	2G/	mor-	4c\	-o-	4e\	-o-
!LO:TX:t=P:problem=kreska pseudotaktowa	!	!	!	!LO:TX:t=P:problem=kreska pseudotaktowa	!	!LO:TX:t=P:problem=kreska pseudotaktowa	!
4C/	-nem	.	.	4c\	-nem	4e\	-ne(m)
=163	=163	=163	=163	=163	=163	=163	=163
2F\	mor-	2A/	-tu-	2c\	mor-	2.f\	mor-
!	!	!	!	!LO:TX:t=P:problem=kreska pseudotaktowa	!	!	!
2D/	-tu-	2B-\	-o-	2F/	-tu-	.	.
.	.	.	.	.	.	4f\	-tu-
*	*	*custos:F	*	*	*	*	*
!LO:TX:t=P:problem=kreska pseudotaktowa	!	!	!	!	!	!	!
1C	-o-	1c	.	2G/	-o-	1e-X	-o-
.	.	.	.	2A/	-rum	.	.
!	!	!LO:LB:g=original	!	!	!	!	!
=164	=164	=164	=164	=164	=164	=164	=164
!	!	!LO:TX:t=P:problem=kreska pseudotaktowa	!	!	!	!LO:TX:t=P:problem=kreska pseudotaktowa	!
2BB-,/	-rum	1F	-rum	2B-\	et	1d	-rum
!	!	!	!	!LO:TX:t=P:problem=kreska pseudotaktowa	!	!	!
2B-\	et	.	.	2d\	vi-	.	.
2B-\	vi-	1r	.	2d\	-tam	1r	.
4B-\	-tam	.	.	4d\	ven-	.	.
!LO:TX:t=P:problem=kreska pseudotaktowa	!	!	!	!	!	!	!
4B-\	ven-	.	.	4d\	-tu-	.	.
=165	=165	=165	=165	=165	=165	=165	=165
2A\	-tu-	1r	.	2c\	-ri	1r	.
*	*	*	*	*custos:A	*	*	*
!LO:TX:t=P:problem=kreska pseudotaktowa	!	!	!	!LO:TX:t=P:problem=kreska pseudotaktowa	!	!	!
2G\	-ri	.	.	2B-\	.	.	.
!	!	!	!	!LO:LB:g=original	!	!	!
2F\	ſe-	1f	Et	2A/	ſae-	1a	et
4D/	.	.	.	4F/	.	.	.
!	!	!	!	!LO:TX:t=P:problem=kreska pseudotaktowa	!	!	!
4E\	.	.	.	4G/	.	.	.
=166	=166	=166	=166	=166	=166	=166	=166
4F\	.	2f\	vi-	4A/	.	2a\	vi-
4G\	.	.	.	4B-\	.	.	.
4A\	.	4f\	-tam	4c\	.	4a\	-tam
*custos:G	*	*	*	*	*	*	*
!LO:TX:t=P:problem=kreska pseudotaktowa	!	!LO:TX:t=P:problem=kreska pseudotaktowa	!	!	!	!LO:TX:t=P:problem=kreska pseudotaktowa	!
4F\	.	4f\	ven-	4A/	.	4a\	ven-
1G	.	4e\	-tu-	2B-\	.	2g\	-tu-
.	.	4d\	-ri	.	.	.	.
.	.	1d	ſae-	2d\	-cu-	2f\	-ru
!LO:LB:g=original	!	!	!	!	!	!	!
=167	=167	=167	=167	=167	=167	=167	=167
!	!	!	!	!LO:TX:t=P:problem=kreska pseudotaktowa	!	!	!
2.A\	.	.	.	1A	-li	2.e\	ſe-
.	.	2c#X\	-cu-	.	.	.	.
!LO:TX:t=P:problem=kreska pseudotaktowa	!	!	!	!	!	!	!
4A\	-cu-	.	.	.	.	4e\	-cu-
!	!	!	!	!	!	!LO:TX:t=P:problem=kreska pseudotaktowa	!
2D,/	-li	0d	-li	2r	.	1f	-li
!	!	!	!	!LO:TX:t=P:problem=kreska pseudotaktowa	!	!	!
2D/	et	.	.	2f\	et	.	.
=168	=168	=168	=168	=168	=168	=168	=168
!	!	!LO:TX:t=P:problem=kreska pseudotaktowa	!	!	!	!	!
2D/	vi-	.	.	2f\	vi-	2r	.
!	!	!	!	!	!	!LO:TX:t=P:problem=kreska pseudotaktowa	!
4D/	-tam	.	.	4f\	-tam	2d\	et
!	!	!	!	!LO:TX:t=P:problem=kreska pseudotaktowa	!	!	!
4D/	ven-	.	.	4f\	ven-	.	.
2.C/	-tu-	2r	.	2e\	-tu-	2g\	vi-
!	!	!LO:TX:t=P:problem=kreska pseudotaktowa	!	!	!	!	!
.	.	2c\	et	2d,\	-ri	4g\	-tam
!LO:TX:t=P:problem=kreska pseudotaktowa	!	!	!	!	!	!	!
4BB-/	-ri	.	.	.	.	4g\	ven-
=169	=169	=169	=169	=169	=169	=169	=169
4AA/	ſe-	2c\	vi-	4c\	ſae-	2f\	-tu-
4BB-/	.	.	.	4d\	.	.	.
*	*	*	*	*	*	*custos:d	*
!	!	!	!	!	!	!LO:TX:t=P:problem=kreska pseudotaktowa	!
4C/	.	4c\	-tam	4e\	.	2e\	-ri
!	!	!	!	!	!	!LO:LB:g=original	!
!	!	!LO:TX:t=P:problem=kreska pseudotaktowa	!	!LO:TX:t=P:problem=kreska pseudotaktowa	!	!	!
4AA/	.	4c\	ven-	4c\	.	.	.
1BB-	.	2B-\	-tu-	1d	.	4d\	ſe-
.	.	.	.	.	.	4e\	.
.	.	2A/	-ri	.	.	4f\	.
!	!	!	!	!	!	!LO:TX:t=P:problem=kreska pseudotaktowa	!
.	.	.	.	.	.	4d\	.
=170	=170	=170	=170	=170	=170	=170	=170
!LO:TX:t=P:problem=kreska pseudotaktowa	!	!	!	!	!	!	!
1C	.	2.G/	ſae-	1.c	.	4e\	.
.	.	.	.	.	.	4f\	.
.	.	.	.	.	.	4g\	.
!	!	!LO:TX:t=P:problem=kreska pseudotaktowa	!	!	!	!LO:TX:t=P:problem=kreska pseudotaktowa	!
.	.	4G/	-cu-	.	.	4e\	.
1.D	.	2D/	-li	.	.	2f#X\	.
!	!	!LO:TX:t=P:problem=kreska pseudotaktowa	!	!LO:TX:t=P:problem=kreska pseudotaktowa	!	!	!
.	.	2d\	et	2B-\	-cu-	1g	.
=171	=171	=171	=171	=171	=171	=171	=171
.	.	2d\	vi-	2A,/	-li	.	.
2D/	-cu-	4d\	-tam	2d\	et	2f#X\	-cu-
.	.	4d\	ven-	.	.	.	.
!	!	!LO:TX:t=P:problem=kreska pseudotaktowa	!	!	!	!LO:TX:t=P:problem=kreska pseudotaktowa	!
2GG,/	-li	1B-	-tu-	2d\	vi-	1g	-li
!LO:TX:t=P:problem=kreska pseudotaktowa	!	!	!	!	!	!	!
2G\	et	.	.	4d\	-tam	.	.
!	!	!	!	!LO:TX:t=P:problem=kreska pseudotaktowa	!	!	!
.	.	.	.	4d\	ven-	.	.
=172	=172	=172	=172	=172	=172	=172	=172
2G\	vi-	1G	-ri	1B-	-tu-	2r	.
!	!	!	!	!	!	!LO:TX:t=P:problem=kreska pseudotaktowa	!
4G\	-tam	.	.	.	.	2g\	et
4G\	ve(n)-	.	.	.	.	.	.
*	*	*	*	*custos:G	*	*	*
1E-X	-tu-	2r	.	2G/	-ri	2g\	vi-
!	!	!LO:TX:t=P:problem=kreska pseudotaktowa	!	!LO:TX:t=P:problem=kreska pseudotaktowa	!	!	!
!	!	!	!	!LO:LB:g=original	!	!	!
.	.	2c\	et	2.G/	ſae-	4g\	-tam
!	!	!	!	!	!	!LO:TX:t=P:problem=kreska pseudotaktowa	!
.	.	.	.	.	.	4g\	ven-
=173	=173	=173	=173	=173	=173	=173	=173
!LO:TX:t=P:problem=kreska pseudotaktowa	!	!	!	!	!	!	!
1C	-ri	2c\	vi-	.	.	2f\	-tu-
.	.	.	.	4F/	.	.	.
.	.	4c\	-tam	4E-X/	.	1e-X	-ri
*	*	*custos:G	*	*	*	*	*
!	!	!LO:TX:t=P:problem=kreska pseudotaktowa	!	!	!	!	!
.	.	4c\	ven-	8D/L	.	.	.
!	!	!	!	!LO:TX:t=P:problem=kreska pseudotaktowa	!	!	!
.	.	.	.	8C/J	.	.	.
!	!	!LO:LB:g=original	!	!	!	!	!
1BBn	ſe-	2G/	-tu-	1D	.	.	.
!	!	!LO:TX:t=P:problem=kreska pseudotaktowa	!	!	!	!LO:TX:t=P:problem=kreska pseudotaktowa	!
.	.	2G/	-ri	.	.	2d\	ſe-
=174	=174	=174	=174	=174	=174	=174	=174
2.C/	.	2.E-X/	ſae-	2.G/	.	2.c/	-cu-
!LO:TX:t=P:problem=kreska pseudotaktowa	!	!LO:TX:t=P:problem=kreska pseudotaktowa	!	!	!	!	!
4C/	-cu-	4E-/	-cu-	4G/	-cu-	4c/	-li
!	!	!	!	!LO:TX:t=P:problem=kreska pseudotaktowa	!	!LO:TX:t=P:problem=kreska pseudotaktowa	!
1GG	-li	2D/	-li	1G	-li	1Bn	.
!	!	!LO:TX:t=P:problem=kreska pseudotaktowa	!	!	!	!	!
.	.	2d\	A-	.	.	.	.
=175	=175	=175	=175	=175	=175	=175	=175
0C	A-	2.e-X\	.	0G	A-	2.c/	A-
.	.	4d\	.	.	.	4d\	.
.	.	1c	.	.	.	1e-X	-men.
=176	=176	=176	=176	=176	=176	=176	=176
0GG;	-men.	0Bn;	-men.	0G;	-men.	0d;	.
==	==	==	==	==	==	==	==
*-	*-	*-	*-	*-	*-	*-	*-
!!!system-decoration: [(s1,s2,s3,s4)]
!!!RDF**kern: < = above
!!!RDF**kern: > = below
!!!ENC: Andrzej Gręziak
!!!END: 2022-01-15
!!!ENC: Natalia Wrzos
!!!END: 2022-01-21
